rishit2904/Movement_Tracking_Mujoco/test cases/test2/expert_walk.csv
qpos_0,qpos_1,qpos_2,qpos_3,qpos_4,qpos_5,qpos_6,qpos_7,qpos_8,qpos_9,qpos_10,qpos_11,qpos_12,qpos_13,qpos_14,qpos_15,qpos_16,qpos_17,ctrl_0,ctrl_1,ctrl_2,ctrl_3,ctrl_4,ctrl_5,ctrl_6,ctrl_7,ctrl_8,ctrl_9,ctrl_10,ctrl_11,ctrl_12,ctrl_13,ctrl_14,ctrl_15,ctrl_16,ctrl_17
0.0018189170218647366,-0.19577438662642022,-0.012004136189780848,0.0193944728300543,0.029275447077400686,-0.05445523030553784,-0.012276281794375413,0.11903564257596551,0.019749312589436727,-0.1699684770570293,0.010861314431191385,0.04416504554867809,-0.04033313007473701,0.046169890608898645,0.14241108703554298,0.14164244551219216,0.013600479472911986,-0.013407672922621884,0.06809509914819127,-0.08141347948491143,-0.16040902874187257,0.0650435620389732,0.0024894238263628472,0.0637796088621248,-0.01754351766717353,0.004959052271111902,-0.05939293562877771,0.12308782774050751,-0.07144592222710731,0.03611159656560127,-0.05484866049657584,-0.03657755158239011,0.11630652195067513,-0.08443254814602841,-0.08194176565227636,0.07038366719249571
0.0029696960119221997,-0.01312276562285675,0.0797660883839511,0.25561722600304426,-0.019828904100100898,0.011418859678610909,0.05136561986994734,0.009770695527992129,-0.11114745953289898,-0.0037821994928198613,-0.11514202292669602,0.024582500533155575,-0.038681882036196664,-0.12201432773159492,-0.093624401014607,-0.07213023114404578,-0.025961095906569295,0.10630194959945392,-0.056116664100943084,0.15319644837187116,-0.1667283470862575,0.11863329997776483,0.1092177545514635,-0.1372295020815013,0.14284749419123094,-0.05286538075193366,0.13436907314869304,0.07804528164030465,0.028079981144268185,-0.02960984416145923,0.1457734987845327,-0.04160894218252272,-0.018317550223884514,-0.18704767890925877,0.13728044177366475,-0.24400705539076797
-0.08129984202557286,0.05198584526678122,-0.04977272866221882,-0.038057107686084904,-0.16611801070726404,0.1478570098982995,0.041900094022444656,-0.030745058071832317,0.08728075354291769,0.08074964321179703,0.09973088596458261,-0.001555962292709556,-0.12044771623365982,-0.019587417955259128,-0.004741605472422386,-0.10333885391329126,0.0075887625143496035,-0.02819635555263817,-0.23384417809561972,0.017579275541390826,-0.010842308419879543,-0.04435187195089834,0.015020347005269408,-0.14884390418767396,-0.048401339568872485,-0.0008105856881792738,-0.16299779618569848,0.20523385498941274,0.03367464624043441,-0.12177567786813587,0.03462666395993982,0.049752031722817,0.030628996722772635,-0.04262123375688975,0.08763010528909865,-0.08253065367922173
0.07532063436793003,0.014588178919152109,0.09178896902294842,-0.06760040392592769,0.08331902092970317,-0.04802497830583853,0.019802175972674998,0.06329748952872981,-0.08671445097011012,0.15095860351896095,-0.13329726862406963,0.02380650738474055,0.22469010582650145,-0.07990250749295719,-0.02367185387276231,0.09489781054209576,-0.07399245873476426,0.07310397247872005,0.03753932152078557,0.18381578736398305,0.025277283881120417,-0.0023800168343126663,0.14407965457955615,-0.045279791878097726,-0.16288559622453627,-0.10370290200328794,-0.06726241072535925,0.18792979637559093,-0.020366843705221974,-0.12487651111489716,0.31686328554835974,-0.054569247820088165,0.08108211005115892,-0.06381192602287022,0.056559243713126074,-0.09548076555769121
0.011778454966244073,0.13229416997998666,-0.022865462729216846,-0.048731094502280414,-0.03244545529646321,0.014118753074365168,0.03786976080805429,-0.0061744204784500295,-0.06045590304285854,-0.07484205998032643,-0.15002491525114758,0.07815486766570953,-0.06345404187807395,0.24373732677327112,0.007754568565407118,0.007168143077192568,-0.013519146961000006,0.03596062174008968,0.20479882574891373,-0.08540213085990872,-0.07788565810577817,0.0319543766257945,0.15233355711316987,-0.1400578154910345,-0.030045445822211136,-0.04680856838700556,-0.00028506620686262403,0.10858562188403115,-0.1333847957547705,0.04393736555268729,-0.0207888997736526,0.10852639579502786,-0.02839093430995179,-0.1565697703228314,0.1010590021000928,-0.03332375503427822
0.0821574242865882,-0.03532690443726887,0.29552556205095165,-0.018484568314744904,-0.07250004959214833,0.12619098472497833,0.08207534243804371,0.03455158353212714,0.032987619911183944,-0.0408186820523536,0.19047464524937288,0.0714090713149446,0.08664441743870993,-0.008544659131455806,0.137924822939513,0.03876756570059998,-0.1113655483251226,-0.03470025083458355,0.10494530402214695,0.19633159419857976,0.061917952896275136,0.13972137862689668,0.013841942551973277,0.01218025774133039,-0.1654382892686269,0.13694044983339673,0.02451354726644101,0.047122297384946596,-0.06139585958025482,-0.04537698375155021,-0.15043329448401194,-0.13114749707110054,-0.11506654609525234,-0.09275286114589212,0.24537168597353964,-0.0051189292597311285
0.055256398829964117,0.009685204019935905,0.004336033428735549,0.009377154471260123,0.001963201098252447,0.09143834027496493,-0.19905988745137704,-0.1430735616468801,0.017861387580198493,0.026294869571494923,0.014192813817710032,0.055291376576687146,0.02359375324969356,-0.08021566080227632,0.0701114790155769,0.014117730983321853,0.05695150249207684,-0.019021647393476098,0.05982423356051017,0.016937115815715508,0.02548939518883458,0.08773157424005365,0.03539503890719134,-0.04539427166335974,0.1567833157030447,0.02542818256478854,-0.07670167582803866,-0.17163256287902978,-0.1735606806621457,0.18255668431163385,-0.1468510695730167,-0.09761162792112307,0.05995177697129818,-0.01027572294102566,-0.014795519446829237,-0.07979756225473161
0.13730294170697532,0.11435862773588211,-0.005356538407665638,0.0727124236825161,-0.12207042463342654,-0.06776475618019166,-0.21482181237720066,0.0011270242253092243,0.1503236636187362,0.14657411605283388,-0.14236582674424136,-0.01969659615428087,0.06387366186410974,0.024447335197215994,0.12035903579980017,-0.030054444330972225,0.18221287081272297,0.05322922379982253,-0.054698709464096676,0.11187751164301428,0.016729188523268903,0.17114791568885265,-0.09734787669621997,0.006965183141634565,0.08674415949384867,-0.09543113049240531,0.05416686462622864,-0.08767909281996786,0.05285826085674268,-0.11857376967331906,-0.025947770425644914,0.037840674787510964,0.1591348392024623,0.00560912882945399,-0.12227516796614064,0.07726777923370837
0.0765920351158255,-0.19389480170111653,0.25361475520932614,0.048513813657156825,-0.09824742558706911,0.09326684285227868,-0.01625317796619951,-0.14993766080448784,-0.06523341369032873,-0.16087393057010668,-0.1708352768502505,0.09493074879378516,-0.0796767486463245,-0.02078482471675825,0.002091661055353292,-0.009692960982787782,0.024630914062813456,0.08518649815377785,-0.05054320576065663,0.04957928160079855,-0.03893029501714256,-0.027889096622723916,-0.057588804927296205,0.07338604105267439,0.15415744200739356,0.0338613298712131,0.1481621272327106,-0.13326895180054874,-0.05493839848897958,0.1290668085019406,-0.12592914526122095,-0.11158836792778531,-0.24992735330040206,-0.04058075179242871,0.040183478879202345,0.08514243685084004
0.03863539919216723,0.0033520694966718244,0.0878856513825509,0.09970453465483681,-0.02358624878178476,0.11146067245940557,-0.16349837390058553,0.002082579452226545,-0.04507120135921352,0.01868993051716383,0.10502794756028416,0.09487686520636374,-0.07909039412543509,0.14704581131279854,-0.006897309169856522,-0.010339828156659138,0.12274757583099283,0.0027146298373130415,0.11742644335498043,-0.04839562475201794,0.1392561801020233,0.15395389642476998,-0.04216981539841838,-0.09154235978703484,0.1496258762242418,0.13630021693190586,0.08729310063110848,0.029680810504229722,0.13135776058603932,-0.03080876613309548,-0.07864595289348937,0.10816720635132522,0.027844181569685836,-0.004979927200422017,-0.0851370759655409,0.06990636399599255
0.031586140778539995,-0.04312377740600821,-0.02119515095554707,-0.034099269640439876,0.05215212721503829,-0.009612862623664795,0.1515863315107793,-0.06275077948467091,-0.11066253717648578,0.20331657056217597,0.11027644882334242,-0.09228263880210305,-0.16107852780223,-0.08389741778780271,-0.017584427762420595,0.1276899643278087,0.0027915189422452356,-0.0752384263061834,0.07176444703265915,-0.04869991182796414,0.01961589835309485,-0.1718658963944305,-0.020672074537634758,-0.05275643113242502,0.18123462716090585,-0.04115791895919663,-0.04665649583097714,-0.060385646385740954,0.046953444970886826,-0.147877561972701,0.017744472999646887,0.1612665837275206,0.014151923511703114,0.055429123264890114,0.019207980677615227,0.06719984280944057
-0.008189458602813775,-0.10341318595472684,-0.1478223749725142,0.019191818324709706,-0.14468619980420658,-0.044199002133627714,-0.17278431872251662,-0.08314140510346395,0.06558988594906702,0.06090866074201449,0.011637542783461137,-0.0336563265606391,0.12450812790324757,-0.04662203506236104,0.03070145191311497,-0.08588180178699543,0.06751332508288478,-0.07488232948444844,-0.03473157594455694,-0.27336992321051107,-0.024366289927072446,-0.09992960672804539,-0.03450535445847653,0.25680742066926276,-0.01998445918220597,-0.052355551768152,0.09331281566379535,-0.17847860957603226,0.011094645800559425,0.05614436726884601,0.05894227194233431,0.04087909663933848,-0.02871803419289259,0.015170002233371026,-0.1729188620074767,-0.0627382535395749
0.09519460780573563,0.08802898524805236,-0.10244608048752256,-0.14250139130004538,-0.17673089615767368,0.14860871920925087,0.10723342498833743,-0.04183869794495141,-0.09374441272318512,0.00357303849514771,0.16427496255043375,-0.12471315997760157,-0.15580208908099402,0.026518510851365636,0.20318746283092157,-0.14463539511012985,0.10150214348507072,-0.032537014671397545,-0.041314890667704524,0.06521507645360539,-0.0014057842339842005,0.002090066613706014,0.13292678189551685,-0.00024167576854250178,-0.08713455063293306,-0.059500078178066775,-0.1499501957802518,0.16134741525646681,0.012698753837018312,0.022936249527801766,-0.1940201960308019,0.03553782996826493,0.045166664154869356,0.02675174348808267,-0.10615660455818705,0.11012507695998781
0.092060828606432,-0.006272538078704672,-0.009140809629921013,-0.045336906986081456,0.0864896139330544,-0.06570518320122264,-0.15416942938896386,-0.1111098267112555,-0.0070077948743656766,-0.008248714920618806,0.002105843337645787,0.14322349675313376,0.047287786730870675,0.09247002841819983,-0.029837557071437093,0.10549695058803397,0.04164943374892841,0.041825099929262144,-0.21730663552969604,-0.13975953134927502,-0.1638657987145418,-0.04692664091778614,-0.03352515975978786,0.12394686089749887,-0.17115582183234943,-0.0628053015176829,-0.1305819671307385,-0.08709585618037047,-0.08571382509411227,-0.006960008664827902,-0.0608055292146135,-0.012671147804500672,-0.04840798486534881,-0.033166778142495336,0.0943552146490233,0.012318777016767202
0.052649307518577396,-0.06768390589903366,-0.12878997171001427,-0.007938734145262208,-0.04683725698360101,-0.025570283209328692,0.08464372524914698,0.03301495094212243,-0.043315758403634254,-0.02002960382727236,0.017312570966021783,-0.08309888727208146,-0.040259943984756325,-0.049546593559998936,-0.09216179938107584,0.07890418682812607,-0.04534662696382501,0.0503033926754162,-0.052555451781752506,-0.0853241086391805,0.06209642027323562,0.05925367455953598,0.1104265852460802,0.05697985577832635,0.014839133242251413,-0.06349059186851669,-0.08458617842201151,-0.10758246589078746,0.10116650450562899,-0.04846160665022262,0.019110109507075913,0.025659135361126923,-0.037910989329352635,-0.013318511516395593,-0.07716935078363477,0.03724663806869854
0.03287083542987987,-0.060343898451346925,0.13780267982531622,-0.0025838963888245685,-0.16783220309484348,-0.09904241800609359,-0.10634255154294994,-0.1749725955613124,-0.007612086690773401,-0.04343438209941117,-0.07076358910301155,0.07127259934482348,-0.1694027171583,0.020839853363065985,0.0190766806974237,-0.14264572490662625,-0.03770773499654324,0.1929887181229325,0.13229761311804455,-0.13359327482874706,0.17934998222241527,0.07366178592889797,-0.1893344036999233,-0.11656325719115929,0.13441959437164222,0.06175307445070075,-0.017330580436636902,0.02542558960516711,0.06308620991230272,-0.18946746860268662,-0.06665657031718134,-0.06164364306800401,0.09896937930628806,-0.11032706911243047,-0.1315490123518815,-0.0469310623169099
-0.09290480379576721,-0.09416787859207078,0.18390102521601373,-0.18916706826724386,0.06101573104796584,0.08136927351439611,0.17816489584931827,-0.11423030369221321,0.01708294216155491,0.03206983980342266,0.05387889573437471,0.04841867243935098,-0.10255624182884038,-0.22100936415296332,-0.06857172482837862,0.01241256508694021,-0.05089447149054811,-0.0022300260662848656,-0.07519756510714111,-0.0575239613423617,0.021276579368126897,0.10996671399540413,-0.06102351553721344,-0.15489754773717743,0.03988421540456665,-0.20280950060613595,0.004875790469304346,0.019790191220275203,0.020842041885086506,-0.000367284608305696,-0.0828855456599637,-0.01535189033074237,0.014234173810003204,-0.011766601118604912,-0.16388998723467182,0.03822234732280566
-0.053857582504002355,0.07744356827125475,-0.12413885623610553,0.07530153867441162,-0.0628598108642177,-0.09871710497366082,-0.007222857766406224,-0.05565626070125515,-0.025415435210348843,0.08106870828433582,-0.14675328031385956,-0.25740410453538654,-0.09350036756786818,0.02018054370610613,0.07639645950357522,-0.1374468229805841,-0.02474005169633389,-0.019238734414253666,0.05226204995630443,0.24192108914549126,-0.04078034001285594,-0.024424977516101044,-0.07323158973897281,-0.12281039867440367,-0.03824937225338982,-0.11116528840883727,0.16491114202056845,0.11646941846427267,0.007945430380544145,-0.1416021359110616,0.15783045351304745,0.18149685834802204,0.09573295188541224,-0.1657917367030723,0.08368610393080944,0.0956287163877526
-0.023646760426400067,0.19400919007170267,-0.014735655164172082,0.06630494264463264,-0.03293425030197681,0.1422401188822456,-0.04604076709217234,-0.12106266234478769,0.05095634526101211,-0.07026809177410007,-0.2085402929683962,0.16254253123053478,-0.0642565624986163,0.1390706202234274,0.021945799609570885,-0.005940918422688608,-0.1436920927420056,0.013671606696571456,0.1986666962535293,-0.07905798838383915,-0.1326673119207644,-0.08870394034910588,0.16513278535682385,0.18011436510429055,-0.046456889864428225,-0.013938184443229806,0.03347343584658795,-0.10396531820895737,-0.015529383985481211,0.09757431690608752,-0.12317235663714872,-0.12123085911276361,-0.06763737351666162,0.037522301762721984,-0.19945893818998775,-0.24002738934745974
0.024758048656167875,-0.02560380890080449,-0.012344130658041123,0.12477100870529732,-0.0693347094982812,0.19641251419588696,-0.08021707220130751,0.03931516702021757,0.05020154923172174,-0.06645153197244066,-0.07080204854153721,-0.042189910959484454,0.036293200647780174,-0.14393480567110667,0.1149181390317836,-0.1483573908985862,-0.04082142105903577,-0.179840160333656,-0.07263561742713302,-0.012438802727069551,0.09189921202291133,0.0359502675105358,0.16692663176087144,0.06493440966822972,0.11133359318986231,-0.00232183660728555,-0.028811599389873255,-0.1585733070261415,-0.09586626037525367,0.0043001845170572385,-0.06161788340937335,-0.1771107264344162,-0.014734606340270318,-0.026201945872745266,-0.05472420161727296,-0.055978425866318786
-0.2394432948953852,-0.023289723050421193,0.03402356639764441,-0.14431291534914356,0.14621895635912582,-0.004648047937108333,-0.10267274125023938,0.017695491303168172,0.09487743348369124,0.04663059200767164,0.2359193065729103,-0.07946083659567867,-0.10066341770831284,-0.026861735347989482,0.09449561781719742,-0.008888613450015265,-0.032114491237131386,0.19783600694769027,0.09058936102544309,0.20772623381389402,-0.2631414373790696,-0.07597755143271295,-0.02798984910028787,-0.030571567569636193,0.10999430894843226,0.13935746578256208,-0.0007242924009338452,0.05828757952928659,0.06298574635317704,-0.15128609801299675,-0.22441657374436352,0.010312442278650311,0.02345633775397428,0.025114471955842068,0.14290351770173537,-0.11062347442880938
0.15768543639694918,-0.020826506428135588,-0.0459785839990713,0.10252723793434171,-0.20730310796466897,0.03944334153396996,-0.2501303558649406,-0.017423304538871785,0.018748681590260358,-0.015222343441033851,-0.1492728324984163,0.06344329192824218,-0.035187407633719706,0.1183710483679418,0.16791775330459408,0.013534589708766108,0.15814250130413057,-0.03718722857664549,-0.06269392652469673,0.08913354713043489,0.08696874227625584,-0.11283486746627198,0.013820567628405304,0.00011166671357899594,-0.0005887961760983486,0.036806201274204885,-0.18983871467805258,0.032475834537927,-0.008842061044004283,-0.026068011014826642,0.20329224128091905,-0.020861873268123107,-0.24080274369324495,0.0717559269754681,-0.0924811991362453,-0.1802948103576113
-0.061068199571355966,-0.08007909917257323,-0.06558703790519467,-0.14635124157312407,0.08234042510839575,0.08157352601027434,0.05504501597064877,0.11322332668334845,0.14166742047778877,-0.034773193427978626,-0.09526263705969357,-0.05419820808534009,-0.044794930858962516,-0.010602052117242704,0.05590596823463866,-0.08499110654252079,-0.0009412258236947391,0.0829232384024993,0.0951526804387298,-0.08390557082604966,-0.13591866332292943,0.056726523094281035,0.0381616250446837,-0.20744427606402893,0.015944992983442614,0.14635289445784194,-0.1806932500748072,-0.05772972915208007,0.09157321027120513,-0.025224644106318028,0.030276970597930625,0.024767045860700516,-0.006174323718487657,0.08474266226386229,0.1106469283119042,-0.05981784726325789
0.0799204434735169,-0.09890842818842215,-0.0658806717973348,0.060682153614670976,0.05463132859144661,0.006947576942489347,-0.04112794808650597,-0.05146187646992974,0.06685450222888485,-0.10621128622124823,0.2785133934792709,0.0025637292350486483,-0.06324566701185301,0.012480836858859274,-0.049471965890946046,0.20238891803521153,0.07725664416544716,-0.027494278552177995,-0.09106169956931896,0.03464126163035016,-0.05953534275659853,0.009781164835741336,-0.031027656003746143,0.0280575771508501,-0.0652080416265892,-0.06906014880123383,-0.14994955989713452,-0.0011767676453900248,-0.16008212581760162,-0.17005774518316066,-0.06477861533495827,0.013538612370270129,0.12742560653336588,-0.056762081587973856,-0.055873499011786745,-0.06801961913348585
-0.02517377000563687,-0.06931192337860431,-0.17692718845205502,-0.043452039012010515,0.19470705049891934,-0.03603100730362844,-0.1706685817349181,0.10578807434662435,0.05040450372279392,-0.10489826073577778,0.19009619992599133,-0.007956869915025708,-0.060870378344600996,0.017668273231212818,-0.029924899771874708,-0.01367304099749567,0.10526073652588448,-0.08415772685205797,-0.06877254780027608,0.034900539908082194,-0.23183133553476468,-0.1314532996073042,-0.06778357818200265,-0.12869942940554455,0.052719715088888064,0.06488324704302433,0.159399518345836,0.07472315604305248,-0.03689886917012009,0.11676766887584918,0.07878740533948914,-0.04453005475564825,0.0744786394757035,0.029682801253378518,0.05188297955144758,0.07090210005805889
-0.04920533938256853,0.03498803505183527,0.023356214655352387,0.242024431978163,-0.05023086773940253,0.18655323723049538,0.13914749081072875,0.034938681532789055,0.001937413383900993,0.033810911597426295,0.0782680206555838,0.11223582896248754,0.023540936313539984,-0.1037897797636484,0.015610163074818342,0.05212723665355604,0.08472711814656884,0.022605544553256342,-0.15086494685876872,-0.07161117371859371,-0.08690661608966511,0.07788551859477531,-0.16632283314264706,-0.2337763129998246,-0.08925138851426523,0.038994266104678786,0.032355326873593215,-0.2598960925629133,-0.0001446736007319421,-0.04883986486292996,0.010541212897960409,0.01772675322792019,-0.14193366031086171,0.012658336906593402,0.09706080296495763,-0.130562654315148
0.03751725908690054,-0.08886087366413747,-0.11072739068810114,-0.09461362523480929,-0.022146631032009506,-0.10519767266121594,0.045855475129232166,0.004128060014998183,0.16039736424558648,0.10539095902283518,0.18638690938207492,-0.007531441578503464,0.03616926102779925,0.0031406715646950254,0.005477493213901417,0.05137054642658968,0.07700932635959036,-0.12397358625973182,0.031031330501145444,0.08175052599345811,-0.04843912355133607,-0.041989587247078665,-0.07992541420134054,-0.04312242304900121,0.1374347250159141,0.06857190153246641,-0.13422677216956477,-0.24376019825660547,0.03938571862779866,-0.028686915043304617,0.05092724667534283,-0.07181490142271502,-0.008490391538818426,-0.01248815037377718,0.09858112434542923,0.02198396403391001
0.004040540297100533,-0.04355079818589936,-0.0363135871628947,0.11997221649596342,-0.05839334898781702,-0.04664145816935015,-0.19248084765360635,-0.025791694628000208,-0.13273512982114719,-0.16663034880440863,-0.04639644514858049,-0.018378701874383136,0.06079223242752538,-0.0031472474017347103,-0.09443909942590176,-0.06522742547353198,0.22715669668787453,0.01781018717677289,0.012386493512750632,-0.10810426701721075,-0.0816172200180002,-0.15383457080114063,0.17113572941449018,-0.013506066949048424,-0.061747146147547276,-0.09562476310599273,0.10696663953647723,-0.18036348650627038,-0.1674871698675445,-0.05851227488462708,0.04557282715568137,0.07348533811613868,0.16297053326619823,-0.00037075189907373484,-0.05461503911646807,-0.08019754319705649
0.09793513007464506,0.029875012308294143,-0.001393116833238241,0.07038978785010912,-0.09072132772007513,0.007398398303936026,-0.15286782058437914,0.03646327317146682,0.08896657793463836,-0.09467912485273271,-0.00805868885449251,-0.07711209500216916,0.1536047142391506,0.013833816310975054,0.045103191877325886,0.08595009528019229,0.15065856036654102,0.021638456918669557,0.014216032972368377,0.027510128302556197,0.10279255753417707,0.17378307605286084,0.07421093366581082,-0.06436383116622181,-0.09625918781745449,-0.07993981870395833,-0.0831674789499802,0.07187928537105924,0.032414890677460395,0.11998899115523132,0.11475874053202557,0.10773338714406372,-0.015920768241087072,-0.1465929012950154,-0.07192873078251066,0.03359232353312606
0.04023296147561462,-0.10172683189252617,0.14272201672898752,0.17412970526237756,0.14888080446103508,0.051801016049242726,-0.07788786767063721,0.009673917771453957,-0.05864814702122423,0.03750164742451382,-0.10172012020541131,-0.054188317892666184,-0.06601051222123051,-0.13265014206848766,0.06848714691425418,0.009926536502866722,-0.01730847750871314,0.033684703231097526,0.0654141675781091,0.03596700092413014,0.013772682434660592,-0.03920583280682099,0.09082788663163645,-0.011005157792166908,0.027554032797821933,-0.02188520645630237,0.035873642519696734,0.06659701725243385,-0.0405985838087804,0.027757851965131294,-0.03977995283505465,-0.010225316124869675,-0.08774717438255192,-0.2110972658533851,-0.0607121320389482,0.04190229556117946
-0.05878767747942962,-0.11096032704231706,0.14013912637864356,-0.003009294859492166,0.13580325409310193,0.09755370250102939,0.07920591975519403,-0.017631942616165214,-0.11224777735815002,-0.09896834542542794,-0.06868652688054475,0.01905894095257633,-0.0452606361409644,-0.03140729724765962,0.013181676813362254,0.05391266449426794,-0.07268213145544968,-0.16870845449980154,0.19008268050689248,-0.013258534850995353,0.1658017213912898,0.18933183016682198,0.1037721089018118,-0.0076999910399837045,-0.04961533410744476,-0.06126636547519359,0.19835078567700584,-0.020513947519886413,0.0886069258564903,0.0012903339128670492,-0.07459683119648888,0.057414754716252285,0.050346437948926306,-0.11878792408047079,0.05803396504784965,-0.004561682246428005
0.01132865393124014,0.05034353683324253,-0.05016850712948624,0.0573568471276186,-0.12847414062298804,0.032153723431808064,-0.1710597094156447,-0.01953624129514498,0.10092636935259505,0.1369745964413349,-0.042796773179348754,-0.009726515961788867,-0.06439437046183924,-0.03671762852153855,0.07682733098378827,-0.06799157848391785,0.0960576994077386,-0.11135096029112562,-0.10420786601683046,0.054910469714926115,-0.019062576007215743,0.08491936279170093,-0.2415516279451441,-0.20739167994244215,0.044595761338888415,-0.12990309626181004,0.04427581055834396,-0.0655304167074247,0.05064493224528497,-0.1383348860564043,0.015515018808050486,-0.0693628166648629,0.14718599901521306,0.09467817689110891,0.10415414343611198,0.16311722590644495
-0.00846456230923094,-0.005172566102022969,0.06634561194519269,-0.024672246020649775,-0.0649196475294863,-0.13959224580710827,0.1353541797408735,-0.09782884072064979,0.1790348883300675,0.11905813264827979,0.1309066577861659,-0.06223317999137178,0.13303404287939696,-0.08897309385549028,-0.06451525259163457,0.03808632566211387,-0.002257534761508518,0.05768368818968185,0.020618981258159436,0.058912104887685106,0.08320438904291307,-0.003898066327182164,-0.0027002228797976292,0.09666327680024128,-0.16490943471330188,-0.11192223584426497,-0.13580377223858842,-0.09267738149718488,-0.03800989800934575,-0.032125163430976746,-0.11299284064711745,-0.0457176201106671,0.023408807428818977,0.1413568132913813,0.04960257086444863,0.05331390814660813
-0.018438818106170464,0.11758654174722374,0.04806563588259937,0.020835134727097533,0.04743966956833184,0.1085872202389878,-0.056542993955071286,0.040589149232721576,0.026496204494368954,0.1113281530678511,0.18245433627988553,0.055000905082119605,-0.1155757514631415,0.00466658984262729,-0.0031732628404577586,-0.16407281384027642,-0.04271326168246994,-0.27300672432452194,0.003665435279107767,-0.08466244247128635,0.012828169829063336,0.011540510907528938,-0.0899142328663411,-0.038636941084343596,0.132539155649815,-0.02635125230779488,-0.22198826778971803,0.11081065625966174,0.1526164467383333,0.11881470876449736,-0.09010456458801441,0.06844255150478416,-0.03542224141869908,-0.02943642811416298,0.3330085052399508,0.07751936331818801
-0.10207522966832794,0.025051284036553923,-0.07235937532710116,-0.04801179288824031,0.04183803205397006,0.013802696563425965,0.04497421700656349,-0.036970233689567394,-0.08026817412520759,0.03412246310424215,-0.13217836201857242,-0.12219605086796065,0.09254704131129574,-0.08788662459042935,-0.006026699508594409,-0.10314408924286336,-0.06757023088522925,-0.06475724286424196,-0.14107615542760996,-0.009833876444689353,-0.053188382083369734,-0.08291483941942947,0.14932988903544203,-0.03078735701534678,0.03171163612292235,-0.1029806231606812,-0.0383818062330566,-0.053274509837438824,-0.10261025605503732,-0.13689404364742663,-0.051888981085963674,0.10641460961790586,0.041690790593644,-0.10116584151620632,0.007971497912668902,0.01034040520458585
0.041227350934796875,0.06843556127918478,0.12191837764333412,-0.03171028116948641,-0.05855050934137456,-0.0466201089335917,-0.030875005573934713,-0.18202755073123214,-0.03826613233446218,-0.08609260395117153,0.11497366200413911,0.013948840072457783,-0.029363995467041906,-0.015879108699070953,0.040253671679729,-0.10273881328464173,-0.147974144256356,-0.03255120301779682,0.14683460414153007,0.16349417352359,0.0630355342766236,-0.006193531620750305,0.06981872835611991,0.03437036869502678,-0.04086248809227787,0.040056025674169216,0.11647261062591208,-0.09008449045123211,0.02570654608664391,-0.037721544488377196,-0.007765133996885273,-0.02416391943298603,0.04294449825574654,-0.027542963713829985,-0.0857726230846691,-0.06860446071447042
-0.22451721024087012,-0.0666849635519841,-0.04509651853563018,-0.04739541039280449,-0.004347470719779968,-0.1930740096016145,0.05254314526921514,-0.05590262447077368,0.040797523737112346,0.03903291673619548,-0.07437829206843544,-0.021975271568440927,0.19752223684252793,0.167924823422742,0.027532614380662204,0.005288896065809188,-0.043505820693413896,0.014895743959725259,0.004126747502153702,0.13342380093038497,0.10600758732756486,-0.0872361808941455,-0.07108406421269885,-0.06038947372413744,0.1603406321774699,-0.10895528858500446,-0.21233237522917522,-0.12328153907006477,-0.029732661528837048,-0.10687496576653395,0.11361570527970562,0.01754826074570105,0.08362847733287575,-0.04309870119011459,0.09646733055335266,0.017470447142060194
0.028665858742492875,0.02521418291618381,0.0045075088689473216,-0.2100200210116431,-0.00026049376018327255,0.03647668941634169,0.006470555064994891,0.06679260448828579,0.051028796977048145,-0.08849613164169833,-0.10477265681396573,-0.012835561476477221,-0.04004019686606519,0.03602654078192355,0.044562236984793356,0.24998241731591642,-0.007903228221640241,0.09323307871544796,0.06885516553435603,0.006708381616606765,-0.02675353818388714,-0.1863147597957049,-0.15392470307339487,0.1250117480646678,-0.04117840646534048,-0.0926795833433606,0.01937473934007174,-0.00804838351480083,-0.008734300139354636,-0.03259083815139613,0.012041925620019739,0.057783284281128236,0.048536967366447886,-0.17593393536349952,0.03587286544173749,0.10952708902608486
0.0003055402620939307,0.05783732975712348,0.11537460399139646,-0.0680004727932169,-0.012563219875890886,-0.16126411986073869,-0.06110154226054457,-0.0343849658649938,-0.02651146130744847,0.06282768707184803,0.0015210789222253507,0.022899155754732576,0.10201331853946094,0.007986410658493205,-0.1632280299534109,-0.11608798626971269,0.05364845248656036,-0.23549568683113625,0.2608258704052176,-0.08202533725991053,-0.018454330281523764,0.07395603262082766,-0.0102574614388868,-0.09857019954017915,-0.10602085014722146,-0.024488903129056463,0.036515707349154436,-0.035596154159800504,0.1303444081822366,0.008568412357463908,0.0015395850152481417,0.009383804810359875,0.112033150601487,-0.10259908552404827,-0.046594271137225626,-0.15002102010707294
-0.18072841609187978,-0.04291339445714753,-0.09813403276386089,-0.09556085791400575,-0.1487013140136767,-0.01487434328660063,0.14062663397327432,-0.0983239906973089,0.061179100114351265,0.04649287805069607,0.17595012857867925,0.02400624496381859,-0.09867813160429366,0.048283602359148775,0.07135878589292206,-0.0582572218880276,0.021652212311790174,0.016022538152209064,-0.0028060246020297336,0.027251400153053204,-0.029749628122760892,0.10005729531935124,-0.04729412786799465,-0.2132784741199243,-0.06000401608398636,0.08843352381023302,-0.013570793182049607,0.07192035034625237,0.024470343642143913,-0.04895970117039927,0.027921712683886164,0.02403927794293974,0.002355425538526254,-0.025106445947303636,-0.16835150251337697,-0.17148757792760425
0.16986220651731898,0.0141045489210063,-0.060805590576188076,-0.16903114774236228,-0.0404440679888287,-0.017844044471020042,0.16617239756575516,0.0818055273858167,-0.061248111605663735,0.04704013743624113,-0.09242934588185632,-0.1332925832721025,-0.011962698318193727,-0.025879834783684226,0.21235155888382085,-0.01630764613150005,0.07819416842432997,0.0424262375719089,-0.005561063764958361,0.16624495944801518,-0.08502220773071227,-0.06292309525462329,0.01997925812148031,-0.04042311232787127,0.03637777579138725,-0.07767786236499974,0.1455358262268399,0.07188418795091162,-0.09375172581032679,-0.04014714045092347,0.10491984269258813,-0.17319308077868711,-0.03901698417953202,0.045703425752289334,-0.15407348693399084,-0.11214631429120281
-0.03570360618768019,-0.024346253688502163,-0.013550266235646036,0.013561968207964667,0.0957634822896126,-0.010597627041643631,-0.07502613806219086,-0.07238331467661811,-0.006266015371853898,-0.020519770695309546,-0.010960827626691575,0.06176728408399519,-0.030485749689077503,0.194500973601717,-0.05818562224622177,0.03083253573099823,-0.07287109622901425,-0.20763555795820957,-0.045237473245033785,-0.08407726980207263,0.010640751318963929,0.06412270293710252,-0.023315116506094552,-0.11254851328741429,-0.03711579797055907,-0.2538257630032663,-0.18735554290452316,-0.17542775791920834,-0.06411228845152632,0.0949828695667307,-0.09283935511178396,-0.0729216912822741,-0.11378926200973505,0.02634088969186163,-0.033747870685026625,0.15036653891442142
0.11630065080600945,0.03789668452825357,0.13424680731737526,0.06580704638995782,0.15164318342406558,-0.07112026766462658,0.04449095743313444,0.22790271820420493,0.04927049188144767,-0.005347783102085433,-0.08973270432316982,0.030478455698236647,0.0025557321175474607,-0.025870685142201467,0.022616090645210266,-0.020649276033577788,0.004185785360391276,0.05777068909972062,-0.0011228825255345531,0.13040956468031742,0.00967524771609672,-0.1531688834663107,0.1306100472366994,0.07516893452359903,0.029901249947216154,0.02474558871670907,0.08239216076587885,-0.029319850626336144,0.07845268232632685,-0.038885416579386614,0.12257635302638291,-0.09188727012669906,-0.14758244576042046,0.13641153048676993,0.08150235549076701,0.0189230642168753
0.14134636666694464,-0.05217983437780434,-0.07026730894536946,0.0590820555034468,0.004763795471045123,-0.0388818397116786,0.05532270309206323,0.1608011571021396,-0.054795605971562626,-0.06777171792936933,0.012962563967155147,0.14129167714755836,-0.09537714547726173,0.17774933921666577,-0.03979257437899363,-0.26059920720023366,-0.0420333974377512,0.1653102891624573,0.03916222685166236,0.1220885800417271,0.2106710408232973,0.11132143958189838,-0.09315084869242125,-0.0513858593258535,0.001954985939409261,0.03839474660678793,0.03682980317104421,-0.03062629198919366,-0.12800461667306948,0.05077340196743026,-0.12329663548394261,-0.1117421254673136,-0.060660917050376496,0.12667973652975847,0.1837350436727649,-0.06010513364075927
0.029772825535893555,-0.06975905015659582,-0.17557120461916248,-0.05595163408168713,-0.3066925164696787,-0.04536386362870051,-0.05868912838719449,-0.20434611264212688,0.1752582289939938,-0.06911470893797161,0.014409284877839277,-0.03762850736069048,-0.057291813870030774,-0.0998242767114791,-0.22526378460223773,0.053156090596807204,0.07313003282610268,0.0573596154916751,0.033962147417544816,-0.15144244510312294,-0.06406882353830752,-0.20333062223941656,0.1780419154886439,0.03358740058112355,0.02847075939417283,-0.06120567220929073,0.09615961803690676,0.06723772652508445,-0.004391796691605856,-0.04023723405960976,-0.047806487373911966,0.1540007201087856,-0.04501466905991577,-0.052867933603506084,-0.08981946642063755,-0.15384194931457865
-0.183137342693083,-0.07277249402942292,-0.09854544658978515,0.07155919763028035,0.1865863826343951,0.028429160136063156,0.04370698506919901,-0.023806508350319784,0.030972203487972128,0.17919324422250088,0.08833297962634103,-0.08393403755228028,0.006373245980792069,-0.12952632790713967,0.002162504962700081,-0.05862591827839744,0.187985854881884,0.13744082239725774,-0.01102124611805344,-0.09624613441553438,-0.045851375777723254,0.06796624743036747,0.17419927528851922,-0.07311282311357563,-0.14475292720221009,-0.08200678612883548,-0.06891577788124768,-0.09267821736927923,-0.04781203428674711,-0.27711043335159186,0.08285159956323151,-0.28106529932239144,0.014205368326126795,-0.04735361631559332,-0.12107611166778627,0.2637340516122465
-0.04415617626410581,-0.08398637810628151,-0.05499224117336104,-0.027598508946889297,-0.023794775898467138,0.145019587438806,0.026594553072737667,0.15166867582283872,-0.01525907698545902,0.2368205677250469,-0.07977570260603462,-0.02848166553329978,-0.06691988150191239,0.10389743331923598,-0.11934625446996686,-0.1582226349243101,-0.12029969862609413,-0.08474386546907367,-0.03436449449030501,-0.27817329333820434,-0.07089860025301638,0.14831329338629076,0.12690482249293844,0.10742411354174644,-0.03818217710451256,-0.03719027054411329,0.2563735472958039,0.05811834327801882,-0.028549622832775425,-0.06048746594263874,0.058818287724965036,0.16834778770024128,0.024517934808092542,-0.035748989292318255,-0.17148550950561461,-0.04896108344290262
0.17522019594953692,0.024826011057673358,0.020063070714607424,-0.06759160079387118,0.021971741815654755,-0.16682508299539522,0.023428197810056655,-0.03556878983489644,-0.0541279716220821,0.1675070688736978,-0.04153832850887121,-0.12322854047048022,0.04966466759283526,0.0005998744079596069,0.040977543902290234,-0.03247233391694251,-0.05694849004730354,-0.03114588130961431,0.12005777505317705,-0.19803932799106763,0.056217908694118884,0.2073904517775775,-0.017649742139564314,-0.02979676321858591,-0.17054552721725197,0.06493650571767322,0.14807488893933993,0.14632085136270062,0.03678872222828498,-0.08903179401677126,0.1569255694777446,0.09608840081978667,0.21031105342405168,-0.07629858796854021,0.11184675077147227,-0.08898098088103777
0.30848833624222605,-0.02878674451123314,-0.06753710174462073,0.021896052767710367,0.06608265496577245,-0.06574389778382646,-0.06546325732547069,0.018008630453254952,-0.032461386400180314,-0.03739042882469545,0.2348125012904363,-0.008353461347888155,0.04686367780745611,0.009892806452763966,-0.21222179273173927,0.15489082517630456,-0.04337696747460018,-0.0696070094010721,0.108099908903488,0.06765011439402095,0.03874807108596738,0.01077311328451871,0.1409484910007419,-0.11247427979117482,-0.1130931763290707,0.15903732349909405,-0.14050076283019955,0.07009647631855258,-0.11149143469954666,0.011311068485427924,0.04372787014595741,-0.03568944749573621,0.08964781201514499,0.1220087714636684,0.11036268782520431,0.09272361193571678
0.005517000359758122,0.038213630538622964,0.14713219815771636,0.125354171124599,0.01022609153981726,-0.034344000153670305,0.11944747027757469,0.12744662074085994,0.0664124005364976,-0.11982439234010422,0.14554591057639732,0.07191360821121777,0.03720528447746911,-0.11744299818178527,-0.11322934856843608,0.10756333255435035,-0.10073114182933585,-0.013144633738788125,0.08392760113345009,-0.16724430038089433,-0.11886763023150211,0.06951705982111443,-0.06851818055887376,0.04718169432484141,0.00921203889648463,-0.009342560123241965,-0.06441034182992193,-0.034464872977404484,0.06187288599561567,0.00028928489221931807,-0.019420476891754853,0.07390329781186568,0.18150258950649265,-0.04490988192294934,0.2860651326080613,0.2674784201101648
0.19390889837085556,-0.06744424162041085,-0.09477059755574685,-0.1258120439803372,-0.021510505385300943,0.056267329351075014,-0.15234043995962507,-0.09439193601682527,0.028611810957502395,0.008197053395973534,-0.1434156149554993,-0.1249152154514343,-0.027839492080186653,-0.102353793391694,-0.031074238261164747,-0.002589420935223504,0.056360147301723264,0.06143694957898185,-0.2536066316231265,0.11109530275885322,-0.06404623497478523,-0.07809233816150324,0.08596391147150677,-0.08546634750680833,0.012313948939682677,-0.05260672763071575,-0.12181284468531471,-0.016863037775953688,-0.12055049112913921,0.15076657748720398,-0.16371088225991243,-0.005398653060173289,-0.08527592869376584,-0.052130807029019746,0.052109274869419644,-0.012875099578096552
0.008634683504676879,0.06342832245003253,-0.008854206036702282,-0.23083005407189416,-0.054524192226023054,-0.09109571524611546,-0.028967551398692434,0.038087816338094056,-0.004692709510022322,0.04028669705339466,-0.014446970912872243,0.10515856077395364,-0.014188572240396845,-0.03626284857001181,-0.031970443534198305,-0.03159332456798244,0.037595449520224436,0.01761018202084088,0.09470154049323119,-0.09130662720460248,0.09492979738512225,0.03689578606852222,-0.019108015950391362,0.049305163501676734,-0.10023638193637877,-0.08699245469277644,-0.04500768915729017,0.12160209364280901,-0.014244639486499894,-0.13672589220635095,0.03176653829890698,-0.07244867651351894,-0.10467282566267262,-0.08455671231594887,-0.057548057223107074,-0.004932724505569027
0.016542113933218708,-0.07463242973656276,0.11613879444509434,0.030887971730104657,0.0607823164031981,-0.0529091307264712,0.047830624029389,-0.029148731218020387,0.06766212499748327,-0.005263313628500294,-0.04845602116311803,0.0721224189528583,-0.11508795158725792,0.11315556467168027,0.09778115689995247,-0.13246257827783503,0.015310235034545079,-0.06754016865429156,-0.07668109218141797,0.28934917940887983,-0.03374559306536722,-0.12735060867216147,-0.14812580381787646,-0.04393209907873413,-0.11950964065367378,-0.092759587050043,-0.1691424042469986,-0.009243973405395128,0.07847126558280193,0.07322386145543618,0.00781636926513154,0.036496269716774624,0.033951146452783916,0.05663659732556031,0.062326424942061434,-0.041729861969832846
-0.038740835360297904,-0.007067277105350685,0.08544224179098563,-0.16321252874198472,0.055465668149635196,0.09821852758604245,-0.010229540379548577,0.07933869706325987,-0.12826025388897141,-0.2722998165111994,0.15028808242686734,-0.06992310189685647,-0.08939257395165758,0.18866434031239995,-0.06448542972803285,0.10067258019199699,-0.03844455134043501,0.0669448052088371,0.024390632131047765,0.11537000501315915,0.18722043210510597,0.012327015124798165,-0.007334978975357086,-0.0914300316227332,-0.07654391673325023,0.05945254634675731,0.10499708398404306,-0.1461732455204058,-0.11896777586495007,0.16372558616180266,0.1011113443499284,-0.05932771701764761,-0.014054083695541387,-0.003025133349802953,0.08338901604737649,0.03693884190037671
-0.13944938987889066,0.1021717796298515,0.0225923917957916,0.054056247845063854,0.05207324458991233,0.019209546301208722,-0.0645258215905689,0.011694990497473978,-0.13994958295654628,-0.0934250185862689,0.25438232312049724,0.04763610605848262,0.029405746732291835,0.005488907324456404,0.16199377014626037,-0.06565656758751696,-0.008667235229293985,-0.0345691934244201,-0.011908077893138675,0.016026395678241816,-0.1047469669267988,-0.05842633271019929,-0.009601702527090784,-0.07786398853022115,0.06386411573895258,-0.022617691986448935,-0.03352709568474834,-0.025780820802953214,0.11220144114306817,0.053995999994267074,0.0407431354662213,0.005580177375890473,-0.1889306834395712,-0.03060662052407938,-0.0571539709783162,-0.0076529528096267035
-0.07646653143091353,-0.11964366415062203,0.040061507196495,-0.07703210926484445,-0.14124288420135037,-0.20375534839200685,-0.047750889272124446,-0.09542010836381849,0.037906081257058875,0.03339687418190348,-0.06114381777577557,-0.16894853042872388,-0.05686173902401179,-0.2823305512162143,-0.050942556526127836,0.01721692641636213,0.10100270588710754,-0.06672099626546268,-0.02506219255143946,-0.0020652609888989143,-0.06297831462383306,-0.021755186033565313,0.11428488099520165,0.1457655380422249,-0.049533946797725846,-0.1344450354820196,0.028693725965423966,0.14146977933515828,0.03453006154851066,-0.08595349425523963,0.10288712515488196,-0.004021146167781083,0.10523809552976038,0.22590427205879676,-0.1882236371019238,0.04883025483802797
0.059747305039372214,0.03934467221510451,0.09252331567594994,-0.13697212226649477,-0.06189295466364036,-0.0852596011170533,0.17472636173451933,-0.025436883876623007,-0.02375624053267748,0.21151305164980885,0.1362353961652302,0.017939381207122594,0.11038513236860088,0.0008295540272274702,-0.05512202101690999,-0.05567614467595833,0.07506115642069744,0.038014198008080084,-0.12088766798417357,0.014025853241646472,-0.1672156914586118,0.07648379995755072,0.013330460003014424,-0.021005943075888434,-0.1316907001909797,-0.08399771506162192,-0.1978774561057873,-0.12295472710683297,-0.0034121805295555412,-0.04165871757560653,0.05359604217800919,0.11779245666712633,-0.026623889893504532,-0.09378011639179051,0.0030281506227136895,-0.04646144730482467
0.018841155762003174,-0.13323215005818972,0.010793868494195669,-0.11168277484124015,-0.009970510327502877,-0.05619979730722191,-0.08881674801017912,0.02000889476006884,-0.014974354676294844,0.060115714014490486,-0.09338761180304662,0.028708918476712083,-0.004397523598055363,0.014740654823591066,-0.025964018426644142,-0.032372960870480465,0.1477635725847494,0.09447233789726739,-0.09608735822431276,-0.11195017364518373,0.07467918408703915,0.060240313840847416,0.06789997795136635,-0.0867887715227787,-0.05813613017442189,0.06593896374777604,-0.04624926315086916,-0.10589579993614118,0.05453840501819564,-0.37521826517106427,0.017920993701335586,0.03967731311145908,0.2256854696585056,0.08110066652684646,-0.14125830416299123,-0.280933832342131
0.053380737262977665,0.03113364634652487,-0.007338055940399194,-0.11749888913724092,-0.04459104488699972,-0.015824145753882742,-0.045986867356955174,0.07950214543067873,0.0548405466969918,0.05289112373374985,-0.039636544159227516,0.021906270900137276,-0.045613779628146285,0.00026369717182705965,0.05012860143853967,-0.03479694528035519,-0.02653421133487892,0.1324579771723432,-0.11413253084059066,-0.03782560503957913,0.1304277289161108,0.047238300886605605,-0.09398449471298369,0.002005012243664236,-0.09191130067189711,-0.13192811482770825,-0.03330816989916215,0.025456416553489777,0.10463277925269461,-0.08871417952398394,-0.08621335923366796,-0.04815941332807966,-0.10835034613191591,-0.05676588754581335,0.12193806888583106,0.10702555818766982
-0.022472907088170443,0.007347484938045618,0.015439691644261129,0.1748843460086259,-0.13955673020525314,0.0922246197712482,-0.168595754394811,0.0869699061047528,-0.03541696386119673,0.021737182108615794,0.1606853418367901,0.010775426451957166,0.14001440705034304,0.23083867557825358,0.10319221069323337,-0.03352548846334764,0.30424823205041573,-0.06031005435854191,-0.018285506786411408,0.036552712832007166,-0.13138623528579127,0.1257199817840426,-0.18001866258897536,-0.0690183848927927,-0.1293000064723727,0.07833397718898831,-0.04075623907704056,-0.05850118134378236,0.03431416402289087,0.10343758414755617,-0.016514238951336614,0.14266032425552416,-0.10837368142580797,0.11585095072694902,0.049535188998701726,0.12377190448433135
-0.13163264502557204,-0.07384595461209369,0.09064022803106135,0.018911934353830366,0.036476703385847215,-0.052969847256325836,-0.10767281373732472,-0.1378635461059735,-0.04387921294223448,-0.15763688444790025,-0.11144067567504659,-0.04797974337162292,0.03395308221344427,-0.10046866188293353,0.22133413467330937,-0.09459286715306953,-0.09545936395011988,-0.15032609849387535,-0.10332955797061666,0.0406030693481258,0.14498980461679659,-0.007921477282878503,0.20308109157543158,0.17068193361116613,-0.0928613490561049,0.005549828253950057,0.12906705020119308,0.07223030502260824,-0.036527993247395786,-0.07726473364079445,0.05751059070198963,-0.13411151549914782,-0.06709140759084825,-0.05650623699453149,-0.024538068962652468,-0.027904635283936854
-0.021814917188993754,-0.0514913816287417,-0.20081231037638939,0.018445734887913786,-0.10653911586310767,0.01731058104117264,-0.06474104252687758,-0.07566853476981715,-0.0005295150253256792,0.09821370057731255,-0.01379479720280284,0.07143748678954254,0.1083511182881357,-0.19239576388309243,0.03632244991823506,-0.0889140213333261,0.02770552006469992,-0.08997317392688862,-0.007875113449284168,-0.17338656131631328,-0.19127361163467,0.05883918551302486,-0.032575587444108205,0.16438416274995934,0.07020985957989015,-0.06388912035352293,0.03808317490009295,0.07239865955652577,0.0720951706139214,-0.05270656404451327,-0.07285179440960109,-0.041049640995727,-0.09531993677527728,-0.06863340134864092,-0.012757556035271326,-0.00795240545929427
0.06329127535170892,0.04720980217855239,-0.007361971027322125,0.09563539874040795,0.1976180255870244,-0.09015207183141324,-0.06503643976223648,-0.03774153711861697,-0.17651074281193566,-0.03439210052553072,-0.14749708882866605,0.1821069573924114,0.12758215318274385,0.08971714201558836,-0.11492081925712438,0.07091350679338804,-0.3113820075042983,-0.0017719638556268358,0.1372985684626383,-0.005118927947872597,0.06990291466031517,0.04021334952352877,0.12073875382760493,-0.03442275466515161,-0.027790674631815435,0.019567126525654684,-0.053224788369051625,0.01471008516512752,0.10011498856744738,0.14763728286756073,-0.05331898434061989,0.02340539356868023,0.15512920589772605,0.14312673827082847,-0.058843097542148275,-0.10940454186974587
0.03407270653036472,0.04724949637832587,0.001063735662319792,0.11753707972481807,0.04209848976148934,0.0028001279465490166,-0.008418080776859146,-0.20115155297366694,-0.09947005262122759,-0.018720400979478226,0.03467984806732697,-0.294612404386947,-0.07999850042430134,0.06140077904051566,-0.09855919216749427,0.2668471426537249,-0.09774718335665696,-0.06108189480568965,-0.055540018583032674,0.09249011359568804,0.10987363695877735,0.021026286016289208,-0.10823512726162537,-0.06835850752353063,-0.0030512960307126176,0.215953918423188,-0.0015443977984569675,0.06751367036045149,-0.04424644031808529,0.11917458629165155,0.052963138569562196,0.03629052734466275,0.02197860837598976,-0.04116290132360077,0.12029074997905385,-0.04938269111652202
-0.18510232124151518,-0.06436482456127925,-0.07494618698701667,-0.043353958599068626,0.10498108954611503,-0.04643612763253072,-0.030723277132120343,0.07845300198498494,-0.03217143988255016,0.21922541498537546,0.09741458071727023,0.1075666085844807,-0.13838481167417707,0.05359166963395099,-0.034540667580676976,0.009250658137615267,0.01712052997647824,0.21233577249774604,-0.15476196283491092,-0.15500180442870237,0.05739525679382405,0.0729865684447366,0.08183434849971394,-0.03445005840331305,0.05176696328143291,0.07065281005776103,-0.18179951730788302,-0.052675235180909635,-0.031760953008385995,0.010027152859948547,0.004257543673034329,0.07293536389928426,0.0448659479022977,-0.012821378025391293,0.08612748614398635,-0.04501104939919598
0.020972139842614652,0.06681779231743615,-0.09555230967316061,0.13939930945128098,-0.004293668321212722,-0.0629557713129099,0.016748827283469502,0.07725977617481888,0.0827921059861805,-0.01476746185797904,-0.03821409760488823,0.06375456569923686,-0.09608890177756335,-0.07918620918999848,0.04605898904623787,0.013523748172657815,-0.01796925240341411,0.10251860441388377,-0.03805620807987928,-0.17122654662122996,-0.10298183143513302,0.0685481176571001,0.12487570265835408,0.0420939393852152,-0.1160240084049222,-0.049951085897826576,0.17624347314510883,0.01867812921085552,-0.023886748870354184,-0.12017321898542199,-0.2068735880866134,0.10519689686528354,0.015599801455439,-0.03700359078146886,0.03694549171544657,0.03374799278830521
-0.1395270344030556,0.1214918377587459,-0.28567584173120086,0.005958466477515242,0.05400067268527178,0.015123397702724079,-0.035477315729907026,-0.14141954799274029,-0.004140394679839724,0.1677209689396742,0.054982334981873264,0.047440930692685915,0.03141007431221116,0.11519637651374018,-0.13044588028604628,-0.06988490424300041,-0.04382950779714828,-0.19504730924478064,-0.0385923469183035,0.08041901184707846,0.026240500566977056,-0.028712925986946504,0.10288185665272231,-0.1636826601870467,-0.08917441858733038,0.12028953871805732,0.015808799120985578,0.08765462982124546,0.02943085121104984,-0.05549310602966626,-0.018876306278814085,0.046079701809508794,0.1345599151947055,0.08883264206948953,-0.0008354415155409806,0.09088787183118838
-0.0434366940000344,-0.00941704471751853,-0.08479665728729746,-0.12999339425941542,-0.05564872277631239,0.013667052486801463,0.1910190091507077,-0.09035151908223144,0.05315314180083528,0.05243064545859456,-0.029031826593782974,0.06825877368707427,-0.02450412820260338,-0.10738832488069486,0.059637357258462566,-0.161671105572683,0.07946198544726384,0.018344240053682577,0.11382230396653081,0.018993848736877816,-0.23562379193030517,0.07979827729397532,-0.10384930336054546,-0.028245619429154267,-0.11669130191792415,-0.016853644711151684,-0.036546792951649434,-0.16118591443969896,0.12407407633988332,0.036348771682660985,0.10433587517015226,-0.06759843418532009,-0.3215873706881327,-0.0007597824050005034,0.162008403509541,-0.03516442188177961
0.11028674837473212,0.14161121547410357,0.062141481729770146,0.1046453247565764,-0.024334941068736213,-0.14528065325854675,-0.013386877075013388,0.012665743022324694,0.07765800607219665,-0.01884364086631979,0.19803323418863036,0.0680490578771898,0.19319509543331626,0.1491810660403829,-0.06584821998141685,0.021444095565186436,0.12172875105086811,-0.12152859633652494,-0.11824013119134671,-0.04672400881803415,-0.10025396073955824,-0.09413553116884735,0.008205277624564938,0.09109150974816292,-0.08838179583609812,-0.2755043547033846,0.050551025567357445,0.1049519493076572,0.10215904669267542,0.022080255918460166,-0.08631816220549265,0.13151546377061227,0.02163935002451889,-0.009699370828783875,-0.08583689625515006,0.05347393801165229
-0.025207465383103984,0.025655959878652785,-0.0020607533399990955,0.03735386048564637,0.02256625332754741,-0.13085298679020507,0.0028270085315555043,0.08190242937065802,-0.04202125514746038,0.1304569189938744,-0.10348306352922508,0.09336247290331008,-0.009703139657122313,0.14162484951187027,0.15528699029267337,0.01091256193818087,-0.07327749888560378,0.10993875334624155,-0.1593628037542681,0.027411701078250514,-0.016329623354512355,0.09791343741254128,-0.03673435760059943,-0.21298482554116094,0.13217299424652065,0.1326755037619215,0.03890836850481693,0.0795858175169418,0.05677560435804312,-0.008746808802376967,-0.06929617833011571,-0.13944840899189728,-0.03135453350200921,0.11194881063593681,0.00970524401774858,-0.1830126438896725
0.06995691414692307,0.0543651007250262,0.1516351677246779,-0.0774210070794377,0.10473025716255494,0.002812419262971068,-0.06503316805950282,0.09644534454657601,-0.03362649083346649,-0.060604518571697547,0.02618080717251438,0.14843661507789416,0.033528015949550925,-0.13394349159196156,-0.061640615775786826,-0.1600717281649037,0.06892573986698726,-0.2166052004216189,-0.07927577540291147,0.1646576655071805,0.07257337073547669,0.06520589865786934,0.024875700454767464,-0.04756534367356105,-0.15724405484493784,0.10097659961435053,-0.07900170252349126,0.005723212242183581,-0.07698078983818474,-0.1306287995074208,-0.06507913479812667,0.13844077512272407,0.14308431401994018,0.011571329581184807,0.04552361762247548,-0.032108154330936826
0.00026756784677511045,0.1001840224803373,0.13688078625324515,-0.1430790297154286,0.1639906870180364,-0.01955282357603334,-0.09906770287099788,-0.03454963992964596,-0.0875127783974014,-0.22588666337631938,-0.11326512917352789,0.01605661777367739,-0.012025642998672604,0.05249052732970721,0.05906507906889452,-0.040666328835483406,-0.10606827467506655,-0.07075567451144263,0.03554172964273149,0.018004897016698933,0.018570761484185096,0.01698086878708352,-0.012430944755618463,-0.0757535326928932,-0.07917694411023139,-0.10555824900595315,-0.19850667880635733,0.019600470801301215,0.20260043397572078,0.05200761538559328,0.04535932818864527,-0.03949412374400754,-0.05299378665527661,0.14776348734241532,0.06181941698662972,-0.15012664023551037
0.015120251539918167,-0.05187103113581942,0.0044717497838839635,-0.18104162818295766,-0.06077196316698952,-0.029947279827912204,-0.01739009940949364,0.16769120518604674,0.022600803862887563,-0.12003757356917577,-0.06876228068043637,-0.03250876781387956,-0.10652047563788614,-0.05244339798626618,-0.055488553023653166,-0.11037996828163583,0.0823376841585781,-0.17925739035360067,0.14184005326237117,0.03876131795021897,0.13469701966209266,0.054600412991882175,-0.05339043968372024,-0.07458435138038581,0.009709756851529496,0.1548129720153029,0.05602680223878991,0.011175813916141801,-0.05285054342353356,-0.052774235177275225,0.0476668621446315,0.026490170188747927,0.06700459127079676,-0.19133561913522493,-0.18834263530931034,0.2136775539557597
-0.01841406286586946,0.15729294262644106,0.042995057001931264,0.05113619145089311,-6.338215179008053e-05,-0.1039239934911444,-0.07455292580635454,0.07547769712546312,-0.15050924663005855,0.12112135955322352,-0.14550080591979966,-0.08286010112466406,0.08730812332538906,-0.015589225703332597,0.04415179663221861,0.02818102494447384,-0.11982205307291408,-0.040846210331724316,-0.06395925518588842,-0.11176679748224011,-0.07750201384461033,0.18570808939025438,-0.06627158715689184,0.1776853532885665,-0.04794565550289174,0.016889995602955267,0.03445117403740683,0.022598702265738593,0.09294185154448864,-0.2008668673074417,-0.1485943571205914,-0.10930403063629857,-0.09523641372475627,0.08422920873702933,-0.002502287534106163,-0.06608534153680344
0.06322073041987634,-0.1577952074117298,-0.12322123189485212,0.05255588927680584,-0.031442897953266345,-0.05529826036790933,0.04808758723452207,-0.0907459772343976,-0.1299589877626032,0.04722774456008076,-0.02884088604623511,-0.09413071591422224,0.07659081718044858,0.10013737687447055,0.1077131051787667,0.020907943613400315,-0.04655379900689506,0.05459964097167887,0.08058876958829869,0.07479340008211027,-0.07320704171904326,-0.000343453694317609,0.044174739315689604,0.13109453073218535,-0.1875564653208571,-0.08030147243791869,-0.02253471557006731,0.048956329184706326,0.0274927217583636,-0.11998584359768148,0.09181372557338716,0.11066930086639114,-0.03170525164917438,0.050961102130518146,-0.11607185189325704,-0.057544352408428145
-0.041046418853897176,-0.0643230102925189,-0.05137993864092904,-0.08041220582320388,0.0024777622868255495,0.25977127330145044,0.04608905304833088,0.03872930181125944,-0.025688813879337493,-0.08044482499555927,0.1681907037999243,-0.12852574436695335,0.12499314042516013,-0.1300204207559762,-0.03862125794206199,0.038296739388079336,0.1354712939364788,-0.019038483075639507,-0.04007938697191993,-0.09903217068135045,-0.011000489487909375,-0.08193769038226285,-0.1528641185431757,-0.2519211931927065,-0.07326412851704996,-0.043161656974519874,-0.1602039415710291,0.05274235241152514,-0.05301675159158678,0.09838081721048214,-0.17721316464979409,-0.07596187809701649,0.045319262155837675,0.03827141349682366,0.09646175340122956,0.19907294828381766
0.024331828629198624,-0.26345210858053475,-0.08788306476819235,-0.08487922279630325,-0.02694710248384192,-0.19996121471968717,-0.01725444766275828,0.029144854753635742,0.1074010279134061,-0.06133323640538139,0.2133861617851257,0.16569240232176052,-0.05264182310052892,-0.009849004471140455,-0.1435526170032351,0.12755901464691385,0.06383264790875624,0.16270023954040597,0.018886587239146095,0.18066957116855872,0.028475375412837206,-0.04219004097562618,0.04384014155832633,0.02270539121870927,0.009715793996978694,0.20962965000745346,-0.0007712332896057727,0.06546226178115998,-0.025229037625879854,-0.03147253879742764,-0.03929506166329051,-0.06506200446158027,0.08996039725911718,0.05429616265514681,0.1656249853449041,0.05976669415843938
0.0919565002887324,0.05851297424967786,0.025117624146646866,0.04747978976427652,0.18798073654850772,-0.06727473040730035,0.1237850976738779,0.06570004251379516,0.15367882559844076,0.0034633200374889067,0.033529355896626666,0.06821796602058776,-0.06386532942905906,0.061497843563451594,0.14821463858786146,0.037443175025625004,0.023730907232378792,0.04742609551039235,0.10981985971638097,0.11458958705804477,0.08038481275039212,-0.0093474461145837,0.07231516855877516,0.002632846756510109,0.05335251181785249,0.06344527689924208,-0.07242781702876087,0.07312742357876904,0.1091274691667667,0.1384004601810271,0.22567036200287363,-0.14508144606147358,-0.1259257090987184,0.022390674683598618,0.14575659175625347,0.27087094409516504
-0.03446255481462256,-0.014527207158204,-0.01354117113587252,0.014962544201798345,0.044967921727913425,0.1964338565487084,0.15452635139007792,-0.012775103108451178,-0.00468081556295915,0.04913250129513282,0.045194576910546506,-0.03202018490677621,0.021658700501627392,0.035672715788901764,0.04893057571796717,-0.1633281330120203,-0.11539382772644752,-0.07428241633051529,0.10331621200360537,0.12611910271900137,-0.0774987220463606,0.012716814743595754,-0.08363824748033105,0.17314529620921204,-0.01895340021118078,-0.030870903486884583,0.14743574432752168,-0.002009275616796251,-0.1500278893692576,-0.03554962484182608,0.041740299486869345,-0.03441842572561079,-0.06787845012244485,0.018299234235630426,-0.05545151307319736,-0.1729555198293057
0.08059654778262258,-0.0445052404699704,-0.07459975758473986,0.08013911500031062,-0.008939848443374218,-0.03328085009181994,0.032432885663385154,-0.026690190756966176,-0.14312743762926214,0.08079411703737431,-0.037211763568766834,-0.025783179055609423,0.13421065130376328,0.00466457528228709,-0.20220767803501066,0.048567580027460366,0.039017267122278904,0.09788479822220393,0.017375780018076988,0.06456239109165099,0.08941143003923833,-0.07680011868889118,-0.06496336986689617,0.031176329539704548,-0.035171972487132365,-0.01769035932152525,-0.14582816959218134,-0.046802427325796314,-0.13581560332843942,0.07735835620261897,-0.07110324363286871,-0.06023410540071448,0.14083947498889474,0.30641086428503334,0.07347312723992949,0.03492500177724506
0.029559323657344594,-0.0964056231559179,-0.17939211657990906,-0.006451568099781337,-0.20446391788636187,0.15446449835400355,-0.012563431507840693,0.04014954982243147,0.021807270478226178,-0.05413679897051571,-0.10585623462724243,0.030799358709035846,0.04987130230257994,0.01094657072360243,-0.01518385137203806,0.02197623009476462,0.17062703624408948,-0.0492235561675837,-0.06862128322323194,0.05520504012525106,0.10673288105620007,0.0028225570616271694,0.13644187601879448,0.05116069626075011,0.00623704507010929,-0.015800366945067864,0.038793317404081734,0.0005798074400473786,0.020503782499460978,0.01290946625274462,0.037916477221180495,0.10609281895953067,0.040700669483440394,-0.11716557379992132,0.10797697390657607,0.04722466513172463
-0.07182365724524473,-0.02980378123307402,0.1677364803098154,-0.10696306339862616,0.28965028759213446,-0.05052531777267161,-0.1692824506742778,0.24077294776108774,0.012565168191272312,-0.09787909311887273,0.028864100255609024,0.02091913615144378,-0.15668349947599974,0.15239619042709518,0.02177728367511414,-0.029323139296646553,-0.1407626822688269,-0.14482879398845047,-0.07507045177135466,0.019000290829663338,0.06250943519908256,0.12792402967876113,-0.009081897508052975,0.0018387239407929726,0.2041152912045753,-0.022513770747257224,0.0045822674528940895,0.14475701690164242,-0.0785251918183283,0.04342185359336606,-0.10734952606421916,-0.25338204904663214,0.12609233428816644,-0.21220843315575158,0.008280089681378338,0.1998800628152453
-0.12216982441882625,0.02817129694719472,0.03500206907583127,0.01577731256866188,0.034787876502232806,-0.09139343398161824,-0.00437729027740508,-0.043341975311937,0.06531816190616845,0.15631456475766511,0.06101834820270389,0.05179820048796239,-0.03637837607715914,-0.07502523807173365,-0.0666691404114267,-0.22288686172007957,0.021307883643845636,0.045197761838157685,-0.006571234610880099,-0.00098998789976139,0.048070091330839684,0.18240876717442955,-0.05845437246513764,0.11547733223521689,-0.04820940164307119,-0.031324199590377584,-0.014557896685349889,-0.025630288272292936,0.15521667058068273,-0.0737874428320354,0.012312157734378795,-0.05676960570835228,-0.01104015447974827,-0.04089997870074222,-0.07171393495295857,-0.07145927088635427
-0.00032224143034878896,-0.08949391432190679,-0.012305112568632696,0.1964783732576003,0.11160629069066588,0.08499086103934242,-0.0996944052765577,-0.010163798573842359,-0.056848080901944764,0.10520379342051199,0.15755074608411082,0.1731587520170541,0.08785547497006427,-0.039294384302455514,0.039443355081817004,-0.12800189483650054,-0.042642569095704734,0.038915159264843804,0.14027970649939578,-0.06481284735224872,-0.1216494250589947,0.04490854564668421,-0.167251694933669,0.09300571139411629,-0.006368689495351677,0.11229043489252488,-0.0884041442193092,0.08613594465880724,0.0348836975588124,-0.006909886043143117,-0.058831564211352785,-0.057053864476821786,0.06496066529015646,0.12016940282359552,-0.15592304201385734,-0.09290087630905991
0.04799637316446006,0.0006323672126701158,-0.010495322968598425,-0.12271956072652992,-0.030106820381151228,0.17590920768344676,-0.10096183337080103,-0.16390288008254716,0.15699739726847126,0.11706108808241616,0.019364291858286718,-0.11876681508107917,0.2087261950433467,-0.07945145025562936,0.004348676061531837,0.06342009265528956,-0.004629524489466508,0.025418575720591943,0.2822482017083506,-0.08270935497904906,-0.009042592167482363,-0.03168361799882454,-0.1516751092383449,0.20733014241330228,0.15114832277836449,0.06138028374247816,-0.07734980555606552,0.13144837511685112,0.05831700895235872,0.02457516515879066,-0.003287905824951152,0.022287594927929935,0.11775438937581323,0.14345843112635473,0.06663333577744367,0.15404007694496738
0.0006097170782993783,-0.04705544675519985,-0.15942334879350278,-0.09290395507000006,0.2160845160418044,-0.08258760425688007,0.2191158337486474,0.19793720303278137,-0.0818834309926959,0.035859929793112415,-0.09311514121333046,-0.1286669226760165,0.054586454195526636,-0.07429946110093658,0.22270644401839818,-0.07647235898016198,-0.07290317973824674,-0.019794350205994828,0.1231454199842058,0.03893735000446203,0.2029205158254389,-0.1673318666956717,0.1458299548063343,0.05517189577216224,-0.008454977680800177,-0.03372200384101408,-0.041041306277399395,0.09424102989185013,0.08749809884793007,0.20471158447653404,0.06298427783600982,0.1163473093124125,0.03964375319149537,-0.014810503573294456,-0.06715272137946802,0.003519454551466123
0.22978522663344503,-0.15484325562356735,0.06741351133341002,0.0803700520140091,-0.1332066862131522,-0.10625884313123955,0.12752598666356804,0.046066826893773616,0.04186656248637626,-0.05003735363516119,-0.14067333744723484,-0.06978933087045924,0.10449485791155044,0.04221098679352069,0.044428971702632596,-0.05335405735985867,-0.009799619845521901,0.06411278530704406,-0.015392451982060294,-0.21410310846792402,-0.0340733516669661,0.08562787026804226,-0.043306235563031814,-0.08639667990190754,0.04740115657808492,-0.04138511413928508,-0.021268648037770566,-0.16214255311430598,-0.11894143051984765,-0.01638147170794356,-0.08349837228446336,-0.055048837601604145,0.07652071026739918,-0.10249971811943392,0.15283362322164684,-0.014281520951270044
-0.019435648885540696,-0.03901543950436211,0.12164416047943803,-0.08535073015426367,0.009037373588584348,0.034379662529148806,0.1996014558206043,-0.11449018219299567,-0.1322682155021673,0.11215795694974118,0.19633756214757814,-0.14631638227832452,0.23394169439683463,0.07833788286552759,-0.01620483282848848,0.07000805514958941,-0.15230331920905937,0.0058322044703044175,-0.02256210420356264,-0.03288047795176982,0.08490244593879118,-0.07424605094869606,-0.09481897901862998,-0.18579608022917415,0.032032930142966286,0.21325669398187574,-0.11272339811699401,0.1250983949120371,0.12758800933765954,-0.08211462711520828,-0.12896416458828583,-0.08336252791092548,0.1464209428044922,-0.013189970030867424,-0.046406691731712614,0.1445105187630811
-0.024927233016128175,0.12163608178010238,-0.13373323959977845,0.003383905542017103,-0.02925491782104979,-0.09296214551634156,-0.09320944952252948,-0.009190448882739193,-0.019959018436227362,-0.02125572876898416,-0.02379918963571223,-0.14349755007319237,0.21780215379931214,0.08146143804763867,-0.12435824577410032,-0.06727959826078521,-0.02263959522642307,0.20401002893266457,0.0754638535636683,0.026125452979519827,-0.16818313212963643,-0.041849963298800884,-0.0787839057725152,0.051628229800915484,0.005323785038260484,-0.059671965670323304,-0.02204274951091835,-0.21155091524027841,0.06506854217067547,0.004971421201290762,-0.04847713167283229,-0.03198896105784747,0.057583838385902746,0.08682159628688281,0.05580687742636589,-0.1428245815504408
-0.06297451264938536,-0.021105598939551273,0.1623741927122916,-0.1221951394776235,-0.14484597931739207,-0.10339700367321905,-0.02089496991952343,0.017252207328464105,0.07473059375122963,0.06354752893565145,0.06112598543313344,0.009924337304437708,0.0909895978076307,0.03543355939980383,-0.11112861660737056,0.005493135658083622,-0.08887107643601522,-0.06787182590759362,0.10607233448701024,-0.1223803023057962,0.10600656066263572,0.03504993474430026,0.14739539502207993,-0.01678015558401109,-0.04170997378859789,-0.0496616310665359,-0.2575644424183853,-0.1580184150002833,0.06670656205678727,-0.1494348195983913,0.11997428885068569,-0.039466749783438906,0.0908976752162917,0.021221906336502595,0.022870648087917955,-0.024286921614653716
0.0804005508684496,-0.07277293684228733,-0.10255860037499334,0.06851259787435435,0.22000725904413138,-0.22809820229028122,0.08664222732707705,0.11196591657462113,-0.1287856696654843,0.030205841761657137,0.0770371931362846,0.20349333487187146,-0.12959943926105072,0.034204143243877785,-0.07067212072461072,-0.09166901336734673,-0.04363469121601869,0.07836976262799546,0.13886571588164562,-0.13646353682551565,0.012490100738147526,-0.06589924686620245,-0.02599009080274515,0.09098293987740072,0.19121881291685527,-0.13662786911994615,-0.07536679479951092,0.09843376938032293,-0.04331994022016301,-0.07151531451077074,-0.020043439116377335,0.12426188330213384,0.012698217274811322,0.09541145111473559,0.07613738604515802,0.021826627103938623
-0.04631942624218002,-0.018256244453489667,0.1302086516494446,-0.1768570764936283,-0.018686039701569963,0.1227288855097835,0.06210632837245268,0.1207479767678683,0.2091702292880786,-0.10585997182464442,0.01588650532753498,0.03151596945064277,0.019909699399889735,-0.14530148733969536,0.08540536458606736,0.04420202451039313,-0.044611730441582106,-0.03373747029703972,-0.047788361436192056,-0.04266448678926683,0.05720886484462359,0.046535071147396856,-0.2120417163158174,0.07001422607390538,-0.0257124497851031,0.03491644125388314,-0.08834573006099133,-0.012267745631965386,0.04165947540844483,0.06364532873853124,-0.05703378811906366,0.052918927067081116,0.01209515788755057,0.03364839955814858,0.024686367575468254,0.0017863929993083652
-0.11190097961870889,-0.12597300959046875,-0.08810189374864447,0.11919968028269981,-0.26518589701738854,0.012205463958187517,-0.07224970732106992,0.06360880533829068,-0.13316337175175905,0.014983084262943244,-0.14689074847088637,-0.20919106996730472,-0.13227743852015417,-0.10055748933240012,-0.022368114146166483,-0.05321871918711085,0.11426532753133122,0.402343535140439,0.05991257945681231,-0.045787378461480954,0.17332529091387233,-0.12925371157460608,0.046231671827444365,-0.14204648090002067,0.144409789891253,0.058849714052101765,0.07945807165411495,-0.04008362215606819,0.22026666401111217,0.1301156096766275,0.005584818190590868,0.0638524923007282,-0.05589664817868885,0.1220698790134278,0.02385711265072865,0.011606714681493152
0.01545141309225847,-0.1328870180625474,0.002423528621441717,-0.04153238234438361,-0.0594968612760102,0.07300703387743972,0.13050241748833125,-0.014970511352558058,0.14745752432171055,-0.016882652956405255,-0.04378252155421404,0.09890442048528553,0.030795510444186627,-0.04688660183719279,-0.056314267093706495,-0.0348784710158298,0.09592412722350917,0.09281965631089222,0.10748998569146424,0.055461372168542356,0.040135499290036056,0.16446089195552194,0.10005843796954075,-0.20203821144227413,-0.025108475025622586,-0.08290703694118658,0.006789392615243277,0.09886313763951805,0.2951667971766717,0.09794280612484116,-0.057960803049624934,0.098574596673402,0.18744762699821257,-0.11663103615044784,-0.008496148944922082,-0.11168198875814735
-0.2267658221074015,-0.03427199316673277,0.08916926950344305,-0.03681832031956711,-0.2092813463659939,0.06504464225295394,0.11192890753487744,-0.08557317857816785,0.09569214053514773,-0.1035275403081303,0.18359983455173756,0.07674079056994124,-0.0026417743982550808,-0.07965927791141246,0.1329547476867326,0.0450028244459906,0.04747993779225956,0.05266138269719944,0.015229084648761895,0.0383842030502595,-0.021309432795211383,-0.053959688601160655,0.06485898432888666,-0.0970423495640843,-0.2401364397229655,0.02143586182756871,0.08063284943833463,-0.019235520376994608,-0.16878350019667043,0.194277602581736,0.13161038417097132,0.1865793506119203,-0.033295565446523505,-0.06688692274592578,0.017942602454651218,0.06444025431725062
0.057021687364819496,-0.12177874812468643,0.03399150951134055,-0.00533477558472084,0.03678080485238119,-0.1274747448776675,0.04623356400401818,-0.12943166406641526,0.023049268270671896,0.1060794689446146,-0.11553892730746065,-0.2829704852183755,0.004293119672969497,0.004655866914194538,0.125340390764482,0.15236749185628676,0.1401827740136131,0.011438089030604809,-0.18417848015824564,0.053440608017106,0.007023539699715787,0.04770926665250516,-0.020979640917331916,0.09498662020934001,-0.01206003676675069,-0.055030252095363885,-0.04123549584625493,0.10600968367514892,-0.038763779317556674,-0.17201736080683555,0.07995503256249066,0.018869070068653376,-0.015808802649670377,0.16518747283916208,-0.035599343883821334,-0.05690861227861154
-0.18086226373978329,-0.2833304253989067,0.07769093242077163,-0.046146557031330235,-0.015292250649369255,0.03060228392328769,0.07271718697604118,0.1282335862146,0.1259309012622802,-0.0743228705210335,-0.015343390223965268,0.06820590176938328,0.018670326459048616,-0.19315229359067745,-0.05656044735059747,-0.054667905618613725,0.10976609357299823,-0.08606091656297993,-0.0313283319879855,-0.08677327238577855,-6.603153757614918e-05,-0.15695049127843247,0.06264651921545619,0.02932396390323257,-0.010591485726194002,0.07836857681374321,0.055491830637431155,-0.03951170180489884,0.09620340806990374,-0.006052261958330571,-0.04226399389429794,0.04250952627006986,-0.11295286880805558,0.1511800531838124,-0.004732849190626744,-0.04117205726259588
0.14411745150123853,-0.01897029033185666,0.0697775321461362,-0.13698617856559406,0.05543169004056553,0.009644959739412517,0.14789873501474354,-0.010648085996362891,0.15882177633916983,0.07643815076608562,-0.040533775176888796,0.0460519909700297,0.16091856150376355,-0.033886275144008875,-0.0552999804675173,-0.20273655115379852,-0.10547205296095233,0.1717715371872152,0.08659936978742044,0.13277084899253103,0.03801059583633592,0.0316404174502971,-0.031048047429218857,0.11794805789697278,-0.039562277930423356,-0.016152186382021223,-0.03392344102360643,-0.03923334011702439,-0.15712572987848905,0.002795952321881297,-0.012346104438276663,-0.10695150327935168,-0.06521434954208688,-0.055947589292825006,0.05171908000642394,-0.07461430607283585
0.020347483511168468,0.2426099814672026,-0.01673643045020735,-0.08360045278893902,-0.06433813229034283,-0.042792557642478475,-0.13637465172087865,-0.1418667999323122,-0.2251813531381478,-0.09083916786935861,0.03831053880937599,0.013710305330560259,0.020027096280564236,-0.029678733012079395,0.10254332619191674,-0.026050081806043568,0.10554275179394268,-0.003958485225458229,-0.16527638904918762,-0.04653907626724432,-0.024438530132104758,0.07220566223245146,-0.09304385766779834,0.05834904888379651,0.1333465822687182,-0.06041141313350251,-0.09878198329667653,0.047205057928520665,-0.06370776921678183,0.06892630874373055,-0.13755879791096753,0.0032323121177506445,-0.2409155400556301,0.045801482504584205,0.2278691389095997,-0.0699641355415863
0.023401372828013575,-0.08150782688348583,0.053392244575301964,-0.23867150284174,-0.13206792375127893,0.06679459063197385,-0.014092121515573678,0.01210100153213716,0.06429943071928873,-0.03916765667035197,0.052030624663067876,-0.03185275394827727,-0.0922594628634831,0.0717325236249596,-0.11219508331850928,0.08625120745147763,-0.032091575655644924,0.058204078074015134,0.007581532643121063,0.06754719666837972,0.03723585404627281,-0.16311937385194777,-0.07268622504440889,0.24453722278818968,-0.050415846694053607,0.04551972470314248,-0.05790463175594121,-0.04308143310094917,-0.158392769400478,0.19635158375571582,0.01694249401338333,0.03993505663702386,0.010068087979173536,0.12957575655279568,0.04326166349663771,0.14377934291515335
0.11606566611652416,-0.08576129572218412,0.07223108242141088,-0.03284978452703318,0.13293517488678655,0.12370913990009945,-0.0934561617876682,0.005442516633046404,-0.1353442394232807,-0.04158858093091082,-0.04927502917406357,0.052880936719123244,0.11877947448768206,0.008309704642255845,-0.11278478555806393,0.01583756974214581,0.06690031580449325,0.12387068431105151,-0.060367251791683244,-0.07139067852504209,-0.04150883835675332,0.26833071366618677,-0.25021129518684543,0.02020974192257426,0.015387620029764074,0.0795257244313095,-0.06804868419636989,0.04894987672137845,-0.11825969699620072,-0.11221723445616201,0.1255719599543806,-0.00454895197322885,-0.07805764636784379,0.03594796716605343,-0.1520008988425967,-0.040411059561158626
-0.16805724123892932,-0.06077466705832057,-0.11877076989659185,0.09956543843744689,0.12862354293355388,0.029711064876880466,-0.20322218300371833,0.012598524648043742,0.03400416899648047,-0.11852212895139094,0.09044416120340558,0.16545122629324685,-0.05925123121756101,-0.06969543138644016,0.0911966606148985,0.1959512950795352,0.0423452095045369,-0.00377266793603833,-0.026932406131921778,0.06326039885153577,-0.1284102428164984,0.13824435089776663,0.17891864153349837,0.03006446659407276,0.08717771511466917,0.12816052296236596,-0.13376571261476414,0.011094239169775342,0.07139420390980815,0.08888521752966917,0.11345684180796972,0.00673426233983442,-0.18163029342370363,0.017810228265496036,0.09249072723705644,8.651361843478157e-05
0.013759773443835483,0.0017096702712692251,-0.13395297516054935,0.030150069015240467,-0.060765048672428115,0.11299332382574441,0.08602133662071415,-0.0012816060544175972,-0.13160758611313314,-0.05014490124908969,-0.05091328229796194,0.23720058987503717,-0.013308547310341094,0.008041468264488033,0.04403808149776914,-0.007906446897061074,-0.055234216535628225,-0.07764830417182222,0.0025152180675413194,0.01330236068477362,0.08086080660814297,0.051907727391896724,0.13621693021174328,-0.1002908416800018,0.13319014222408754,0.28917828269703505,0.018762478511101133,0.09605519854950033,-0.11867063720043343,0.04926620880313384,0.049997010875180464,0.2079246719615518,-0.06801322035964935,-0.07866621781174543,-0.005964450056905716,0.0782238170240617
0.15213836121680957,-0.06341564395011366,0.11224297526892194,-0.10081382845974303,-0.012976152590087546,0.17209331638146827,0.023722624076225034,-0.18877411080611295,-0.05963024977046825,-0.04854266962425199,0.018475841147496532,0.105213555850404,-0.17340658712740598,-0.021368270575278753,-0.0810162271921705,-0.008520754841808666,0.07855968792193288,0.2793990134735429,0.10842090403651304,0.11374647155585249,0.10358729838828862,-0.01519258592365882,-0.16955106388412,0.02777825202558087,-0.05549808725263655,-0.1439533364959998,0.0571479345765446,0.15389565371262348,0.07150697765764863,0.10085910885215002,0.05740722017369046,0.07595576364001544,0.12218573870393888,0.004890136218368021,-0.10827259820116969,-0.13375831322760345
-0.0477036281502915,0.11969742948672452,0.01728533243380138,-0.23495380524660106,0.08970250027171221,0.00044032347902504685,0.06217657111401247,0.14736110738494537,-0.06611805772043892,0.17757063494771744,-0.006063139949488202,-0.14636728254784498,0.32616702133809405,0.0894584596221029,-0.06003097137390967,0.07243382526326057,-0.06099991391140173,0.007270939241020661,0.08655204256912094,-0.030445557928942515,-0.08946841495864394,0.10080380665004084,-0.14977666419370342,0.007052187912091269,-0.16365693722798774,0.027041269732552293,-0.13949151028507656,-0.01418261895413722,0.09664778683127451,0.03877444501948982,0.17257553533426695,-0.006475846075592454,0.1435855136479137,0.14062951474773996,0.10784174012522768,-0.1877060909593241
0.20161382677215056,0.04208045339946093,-0.09895833005336033,-0.04716376146226128,-0.14982457476022068,-0.14052856578945802,0.054286543245306546,-0.007083518871037292,-0.1561226865719111,-0.09048634950638192,0.05473678571150568,0.02880683327217412,0.09243384072529706,-0.006410485064085121,0.02797172813417159,-0.08999585405624738,0.03852117320834724,-0.024131453468346414,-0.13985410752770847,-0.08412937097087919,0.033122465373801854,-0.03243820926271382,0.11301380420646841,0.02321888088008802,-0.011537347007654684,0.07357632030264065,-0.11401739348172378,-0.09772355156553686,0.06525490556984954,0.13297482819351633,-0.049611458362514335,0.06494512571037107,0.02137549864755831,0.018873497345769347,0.04383584423913433,-0.021269801011503466
-0.007036749861390275,-0.17057599273398735,0.0553114371935619,-0.12982946977926094,-0.19122647352687083,-0.15854471080394228,-0.012322477289639616,0.05697227158955537,0.05398088350143039,-0.12726759986811365,-0.07703219578513776,-0.018142229565629994,0.11969329211910978,0.03602936050621983,-0.11058554822725593,0.03572324074003377,-0.10974195839856334,-0.11878865136378425,-0.01585297245865702,-0.06922539731635603,-0.12731707604054654,0.03120002191425894,-0.18186648248307868,-0.19951593216779212,0.13388833849026519,0.03082847289384723,-0.037690836800399544,0.10098023585793764,0.23348567963456968,0.009148382564419376,-0.08657408062448184,-0.05331744174633688,0.007208706992188706,-0.038431042806142755,0.08519188243625737,-0.018865149882120763
-0.051231619260712735,-0.08985922499317336,-0.013573759320566176,-0.13755735736628502,0.13457882633347984,-0.11525203721567859,-0.155905819302817,0.07246557722073627,0.06218830502782502,-0.1039109848714168,0.13486858237182073,0.15393028236244546,0.08871455484541965,-0.2168162832018176,0.05880688450011384,-0.06427483689685964,0.015405588727812803,-0.1640282193886542,-0.08782522583345956,0.003534087908430299,0.0672943884125963,0.02947819473161787,0.07157013910932142,0.05630427916074086,0.09451773126877794,0.2860610528175685,0.01745065382944311,-0.008116714557355348,0.007335821235592859,0.11390283914235955,0.05284987808622821,-0.01143747575476037,0.04635463473253803,0.07400278380266143,-0.11386246875078138,0.02437666447134286
0.0023767125585375617,0.04600399379227734,0.22768954510091538,-0.006681034638196779,0.17620575810737504,-0.07223220936961987,0.2176006339189406,-0.07649448070774843,0.08057930276468422,0.013682669666778486,0.030308574681778572,0.08595852288224771,-0.03202187955646984,0.010369172750095718,0.05245036470506719,-0.028514497876913566,-0.05377081700611235,0.10383674910415924,0.04103762661887532,-0.16890463822539437,0.09662173442006701,0.015510437908958669,0.22947585445104415,0.05824817868779064,-0.06169813801405305,0.04003797761883804,-0.06007475299064159,-0.011904548026774734,-0.0372116815162482,0.0686735516521099,-0.017901907857632925,-0.08058441538951042,0.06288990703129219,-0.13023305882794534,-0.14065596122668364,-0.02900509222262895
0.004883042454853277,0.04631921911399048,-0.03306100496127513,-0.12098149863781156,-0.013803581490047163,0.10323323429034281,-0.012329371805593473,0.04400188683875941,-0.002138645095617732,0.10838802922704621,0.15620046506849866,0.01756597866845588,0.1097038975272642,-0.06822501288095126,-0.08717177082594534,0.2016145679966732,-0.10140101650676044,-0.05627948138979832,0.05433141123681561,0.09926382783716155,-0.03680311325396548,-0.02196214277596261,-0.09161298762023873,0.06711158514902302,0.057556066064572135,-0.046384826319873874,-0.15120074845315287,-0.11044481403310442,-0.061713756236736896,-0.004497144958702094,-0.11490110919320669,-0.0073622465321658975,-0.1925198492952879,-0.055179070942460495,0.24139086662942721,-0.10654491087837069
0.09194854175690777,-0.06975480063310897,0.08727487903030258,0.039874340912419454,0.08967657614928873,-0.0022093602165341353,0.01364876182357906,-0.13820646852291318,0.07310692245854125,0.1310015274155182,-0.09250664070078847,-0.13653624077620616,0.013501680313880033,0.1005540565662026,-0.05890419100177059,0.012403227338182901,-0.11708024202492369,-0.01857360506139961,-0.044371322134830866,-0.09400053443209822,-0.06397620151496237,-0.23702458623262884,0.22802826389208675,0.013838309151546222,0.08599810419977044,-0.07068221418332515,-0.05908994577923789,-0.15796011437819552,0.10681571206919756,-0.01651005442788671,-0.06833914915524515,-0.10961621684062187,-0.11258362504532736,0.21239875037170766,-0.0528732543119787,0.0007824319458949611
-0.08670232302197613,0.136820551574258,0.10771477538435095,0.05826861916159638,-0.0580019595376314,-0.06537371503060953,0.07988437222513735,0.042861552523167236,-0.036164434890603774,0.026642353431494598,0.05151530065510196,0.044031914209140745,0.0738383790175789,0.03012296699377258,0.020756056951872368,-0.10588584224008511,0.007290368938051923,-0.05457906875607808,0.0690021916417221,0.04133609217713478,0.06950510733910388,-0.019804249502827706,0.049480186303740334,0.010696996215978687,0.0600894314735463,-0.038187022431943274,0.021996708609254883,0.2148753400379353,-0.008448796361053142,0.07385022559301788,0.0721559871441867,-0.09957112195482233,0.06294056375302108,-0.05248877301260046,-0.06190230324189547,0.1273009362951686
0.004301968673006295,0.0390187718948276,0.262066022625594,0.05619274264557949,0.0475474434294957,-0.051019422062880695,0.054907521560411836,0.06951225769092721,0.1850514059649566,0.16927274651830626,0.032262518321900004,-0.18333058689057694,-0.016107289363291,-0.11358003897516854,-0.05785914301845279,-0.07124722122040396,-0.06131939449062082,0.05676139397939663,-0.011915753220787566,0.20997746282785054,0.11216123725188745,0.0077330974929396695,-0.10830201366247505,-0.015324000760124605,-0.012286708192280855,0.1697955416580893,-0.04156203796747038,0.018871428657530512,-0.0017878814052721484,0.024835851694594412,-0.013071108185393365,0.056090740619256424,-0.24397336496326893,0.06967796314772821,0.11605608670189689,0.035260857603610155
0.13915218711406688,-0.014088788027276531,-0.1069499175162127,0.06122352633019652,-0.07135924333045966,0.0797294079336982,-0.019603304415386543,-0.06064053937780137,0.11993321910512884,-0.07096733031223364,0.05881681698172199,0.06167486876426782,-0.0033522681108275284,-0.06019425386320405,-0.052930285399828185,0.02554963182841302,0.11691902416041931,-0.017434149523564212,0.13214292512943923,0.1756119712635631,-0.0028309442247405944,0.12468764174169161,0.16012932508058214,-0.025635538197516062,-0.020122685669621356,-0.28799207663250004,-0.20548957997066877,0.10361088080098882,0.09242455988627385,-0.08913593629610328,-0.047976537196238456,-0.0208553228807925,0.05726486260317341,0.09437824125771133,0.013256455827935155,0.0021412495325624967
0.05748061524071949,-0.024792772291822546,-0.09471363104937033,-0.04926182287838477,0.06664351607379447,0.11781622418235767,-0.03142452303073056,0.03486452928495203,-0.01616656844025897,0.0266590749098575,0.03213648851598526,-0.08685102017260822,-0.10259805570039678,0.02558294435420938,0.027210094662541096,-0.03994365652439552,0.03241806046997166,-0.12807599425709013,0.03163503711905204,0.030006301659509346,-0.06343448120621019,0.0391210747097627,-0.05101359732408284,-0.2268114587754825,-0.06276083748275699,-0.09051569087097508,-0.07245720064701233,0.03727426278480703,0.04441203510758561,0.09895866665408115,0.0555439876474742,0.13838968269526172,-0.07939603747804508,0.049017829132324914,0.07062044320987741,0.07543550109403631
-0.0013157943883078886,0.22939007203458767,0.042940622704954315,0.07565764855313915,-0.09958669402312716,0.04257892232669988,-0.06535865465472557,-0.028743729309515798,-0.12728729791215518,0.04058379068861024,0.11397748044959786,-0.06367868090050675,0.10847533168140976,0.019759562813788822,0.13834381482775754,0.05123351309332619,-0.14034690180640907,-0.16365701402366548,-0.13308076701165322,0.04366443589687231,0.07328012889887368,-0.12364719104268607,-0.018022565203576323,0.007686977997407112,0.11075686126484191,0.02147364690706731,-0.03872021427128039,-0.011032273859264535,-0.16378083414310868,0.09113079369049804,0.0852573799855831,-0.04312072622352429,-0.08373319411357365,-0.02789538791082287,-0.10018430932040756,-0.11372344223994926
-0.05463404990529713,-0.010430909378393088,-0.0606473970802542,0.2031303373667801,0.16889007111060458,0.06547573865108934,0.08331111843166994,0.03392185042406268,-0.0690307935249063,0.05561873171624876,-0.07429481205250096,-0.22495971875892887,-0.06846083606907981,-0.018369205990725217,0.14321548765149036,-0.09124664965087004,-0.08614119025602426,-0.05265366183506143,0.035256616537403716,-0.055682294292813066,0.09061040163270595,0.180074219427388,0.1031268790016723,0.10631928874411606,-0.1432055314876368,-0.09850156201671967,-0.030041394712224917,-0.08585016387592288,-0.1650348088257979,-0.160069803624599,-0.05269773216744306,-0.021833569366467964,-0.011981637100217333,0.0314190143742786,-0.0517103088838407,-0.3258840792829807
0.09949315490504801,0.08219023596030017,0.174576744371304,-0.1465974458756704,0.03959644856380147,-0.03795536692879567,-0.06788432160044866,0.04532794922170522,0.09991787964654252,0.12110371264758867,0.03317562017089345,-0.13743400859405183,-0.12394186833706794,0.188973306430368,-0.1494439898072516,-0.025428050882955456,-0.1593020685471025,-0.018360449381251167,0.15917308186735724,0.13805210646631608,0.09221475196867912,-0.08906715759005283,0.08145664265887043,0.0030969495994925145,-0.03971553768438819,-0.11756419369913428,0.01862582197968764,0.007088269934144533,-0.05811118179606405,-0.07424823936365911,-0.032518008531786005,0.11157444425804022,0.031917637361219164,-0.046386123355995276,-0.13753874149278206,-0.12436567844397431
0.05670298927610448,0.05782477677433371,0.0383170357343075,-0.07439140200286995,-0.007630599500574394,0.04975128438841956,-0.15450980581701707,-0.12158120087483955,0.07188210038594221,0.013408116333016085,0.2105214345532645,-0.1365470399406661,-0.13537097280072777,-0.0835222910954068,0.188223115405751,0.13034075419460808,-0.10068121046023915,0.05455375059438077,-0.02726024428253193,0.06726157002164625,-0.06273187661147576,0.19089494989114397,-0.019558688964148054,0.2009665356147793,-0.11392328618686759,-0.12357098765115107,-0.0830244855368785,0.07381605049948407,0.08387546204989646,-0.020832496657607145,-0.01593616475482619,-0.03015116748098269,-0.1468677444450236,-0.2681041366916403,0.10079754915196544,0.10668262025816883
-0.016460257425817776,-0.018133924470295583,0.09476545813748298,0.17326849123148247,-0.08013020011326355,0.039251168790564187,0.0981380756084549,0.08042567577993581,-0.07704599380084791,-0.033594036241407055,0.20630002836301065,0.15757437218610082,-0.13410190757651957,0.1415865862591759,-0.0009216011266608656,0.1852432774763305,-0.014950892625342372,0.11860983798773202,0.0021830395405031838,0.01060015494348111,0.03662629459633102,0.021951586166370746,-0.12541434740204802,-0.025454038679421837,0.032698082705457224,0.0658916846969863,-0.04305953632128136,0.010613599132838117,0.05182565507495952,-0.14804851807940056,0.017257557387945734,-0.014734504994239481,0.09372022691144366,-0.007706105535868957,-0.11281594437269843,-0.11986158880540632
-0.09986885490394401,-0.2609828953729678,-0.04485836379562282,0.12916698321952647,-0.11681249241742163,-0.17821187994467136,0.09118199305214421,0.03646432708671466,0.10703972711628729,0.06869698434254735,0.0625229939992953,0.04408946677734671,-0.07426824850829958,-0.10008504934166701,0.16511605398267212,0.03852657316268444,0.00030849351359664304,0.003806702347533307,0.00636838830867021,-0.0356423778624148,-0.026973191845382622,-0.12153539163949033,-0.05984304960916285,0.06085199819962725,-0.2995719041575452,0.025648816611224447,-0.07227159960238806,-0.019810206858491178,0.042635554211903647,0.02232773740445522,0.10830318604259266,-0.17497483388118146,-0.032500108580906135,0.08964798092854738,0.05325455474153952,0.10297466014129009
-0.16613112918881087,-0.03294316938090389,-0.005225906349513811,0.09743631849406094,-0.1297829379363635,0.05174409250575756,0.07156547436924615,-0.03656139748520831,-0.19081436298829868,-0.05599907078215949,0.02842570989865933,-0.0891175583388452,0.08333503250005103,0.04310351460386943,0.09654270985233435,-0.03317933711606968,-0.030986800935945736,0.05585354238075019,-0.13213034772626578,0.12703473873223953,0.059054501242621515,0.12506317552605584,-0.03546672658780885,-0.1273192452700513,-0.12371370490043564,-0.03503164992868226,0.12978675702597564,0.26334806077640927,-0.1216105970537329,0.0008829402992157617,-0.08833339837887855,-0.10613758245570121,-0.037795319106405066,-0.018761626617993465,-0.05518447607473412,0.031595726482513256
-0.06993997717362914,-0.02482229681534681,0.11625813409442097,-0.04742110834932226,-0.0846176631771176,-0.021221027285512162,-0.07081335273635318,0.07816224419668064,-0.04794858340389973,0.06611104670998923,0.03724283989031563,0.025498408741989016,-0.08311550908905012,-0.01897843237032063,0.1397666756666823,0.060133862921643,-0.08733478388239718,0.03983346190851841,0.03218356903760473,-0.011898363312397346,0.06858720154426562,-0.008113697509720333,-0.006223646054825286,-0.00362032863699348,0.14608877899210768,-0.2781959663942836,0.0045013021210737695,0.07160241777678295,-0.07990328547422695,0.030729933249843314,0.04260973762027147,-0.24079646044025083,-0.009348192630330108,-0.03759443958157563,0.03481364487299814,0.009320301181111898
-0.034111135412405194,0.011319943144270032,-0.17050444181878896,-0.08175973410282655,-0.019560958775100605,-0.12994363732404568,-0.030021862609578766,-0.09355330471195838,0.02215766068332785,-0.1252206710487642,0.04693789981261462,0.16346945363752785,0.07482330984527662,0.0016042793957631082,0.02092417648185243,-0.060428099084550574,-0.18402597951406977,-0.12348159213643572,-0.07451583628697685,-0.2527067986403826,0.10417716822924297,-0.23052553052758246,0.1608429670292086,-0.17145278387819504,0.005298387203196219,-0.04646792749716244,0.034548755707748645,-0.031027808566781747,0.07630459606552824,0.14712113007103875,0.14349199459503864,0.06944193977191447,0.037017537493318445,-0.04898683431138423,-0.2143956876529538,0.05238490666233277
0.08004247791952046,0.040721317372152684,0.044442626368683395,0.06641327886106618,-0.11495069885518927,-0.09664949386588445,-0.034192307358857546,0.1028582502485433,0.03927596305963159,0.03192595469936459,0.10811070477990613,-0.008290746796169278,0.0161993261684783,-0.03070023585236093,0.26455377902528227,-0.03394229681484721,0.11393224275098889,0.05123109800873946,-0.05451896150379433,-0.12589849558709917,0.1728710909513761,-0.11987812245364625,-0.09468187969283084,0.3005567636001112,0.08869799301391981,-0.07573430965199171,-0.014316948292368521,-0.09464966417864545,0.06847051716258178,0.11067944302502027,0.09338479935904558,-0.03453122875211225,0.1326276788488725,0.1276541475858952,-0.0622733723078531,0.04660150780411032
-0.004695533144629552,-0.10795670208353761,0.10483480150337253,-0.1317324440499318,0.055975587876489576,-0.16744943344663124,-0.013519965941164542,-0.11428631143112954,0.15837515903163712,-0.09551576150039758,-0.1432915061829681,0.045442551092189976,0.05408704037481328,-0.0874063496912821,-0.03956706067581165,-0.03356740912911261,-0.09706992717517698,-0.013510194931516168,-0.14244146964144533,0.23106343550230007,0.02626665289867773,0.2704784159923466,-0.016548266029605106,0.040078794579442495,-0.09615945938027355,-0.032194159364465805,-0.15145678407061916,0.03850199856430298,0.037226539082995676,0.0670347158927114,0.03499784603594449,-0.12493886461651477,-0.07923176084852804,0.006360305604480971,0.007682769120197575,-0.05011556739282196
0.008016496446052797,0.08909948703401266,-0.17243301464478825,0.0005570479875105586,-0.051444049893383595,0.008245919013653352,-0.016303343207412054,0.019879525261753628,-0.10573586499131125,0.005620990999878294,0.050062668841675,-0.01868118752410405,-0.22887159466508297,-0.04717744672887401,0.0726419200241633,-0.000377879001395194,-0.18051664885250002,-0.001592537577450368,0.08761148514530752,-0.034004677234814984,-0.19789083020693563,-0.013371570068453825,0.1291739098004015,0.10936016110796874,0.02420228725211583,0.09601248644287913,-0.13304464888968323,-0.007165651216578308,-0.008318196195191023,0.12549030954974782,-0.12839660420912746,-0.08418126316245961,0.041549770003208225,-0.06433045123197455,0.055623387105706946,0.05590746371727309
-0.06716341159609257,0.10510229365725131,0.05730206137417938,0.024574617903762468,0.13645331194347787,0.1009674490334622,-0.05202894628101323,0.11344876913759237,-0.008326947879853323,0.03697016851088694,-0.088933782872229,0.11081540246462017,0.0815954473183393,-0.12406569878503362,0.14166354464181535,0.038542301622373716,0.08444791850689118,0.19724492185180498,-0.11746487098338934,-0.056277102153015436,-0.0255197010199616,-0.09131160298783252,-0.14170771638253726,0.140628813083408,0.19026573671058045,0.11256448141160856,-0.08099354869745894,-0.12354948135665474,-0.16150824443710582,-0.0631774030760168,-0.06192606408770168,0.060979492891721825,0.08659297175453147,-0.1047449895798359,-0.004632546542660133,0.11096394565601742
0.05773030704214062,0.12867762750868308,0.19238543631642321,0.03303206870595323,0.051486595382774836,0.0903520144194421,-0.1558477941679356,0.016056694764558038,-0.11196382405827077,0.08629074583306987,0.038349105227508,0.028874000736567658,0.14085146309077531,0.04284850435938356,0.027287530506746163,-0.16414195331900275,-0.12945801926218423,0.12545580954161326,-0.003267601227157085,0.01856382657785602,0.06679760990031347,0.012146056174156962,-0.07423948095192043,0.06722027230634064,-0.17123220887930893,0.053267795687119424,-0.07064087843652403,0.067827481464553,0.04840491467785551,-0.034399493457732654,-0.058803261445095956,0.028058114559491056,-0.03105673085105966,-0.10410924788462123,0.08951415812043012,0.002204197303833312
-0.12796124430900738,0.0230738192782519,0.03120698950893357,0.1405592044549769,0.1353508965791727,-0.14468805357321213,0.12700077616003547,-0.08723631121285023,0.09013042800638232,0.1062508787447653,0.0812512129168304,-0.20635610687206804,0.004640000249283919,-0.13602655898416052,0.17028706201683524,0.08419111015922892,-0.08077341744056271,0.2564956771244351,-0.0008889284158953147,0.06260366204251726,0.05816038510135546,0.18861961239317596,0.17205067826275247,-0.027175037250429548,0.06975398643153323,-0.003485963708632493,0.23205937247286879,0.006287430023763503,0.1532719207688115,-0.06237828773393033,-0.015574885108076926,0.09984618347185953,-0.14887673575101398,-0.14268654268093156,-0.1250176881551048,0.09354283033363628
-0.06827074104391168,-0.06014103122814889,0.1067880859324605,-0.15793397913463192,-0.031062587090430433,-0.08662785170359022,0.22939373451446504,-0.05124348768414706,-0.06852935363110975,-0.07308374628860424,0.12487389116150793,0.0015424364021079473,-0.022826293318264194,-0.005531385019656295,0.03486127337617272,-0.11395610441016334,-0.1902017033734808,-0.13653639177823587,0.07264349161308035,0.05623716874403069,0.12131206303623909,0.17605567380911027,0.10760591962187788,0.016135054205755322,0.017882006667639342,0.041636089673665715,0.05262700595951522,-0.03466461432543904,0.04747089325017093,-0.08999083000490735,0.05554337925322871,-0.12920093643151495,0.06470879397117583,0.004133415518649598,0.03971791438144314,-0.17280679403480273
0.16289864955964706,-0.09172119232863052,0.14516435931512447,-0.030754934663567376,-0.16598832594852017,-0.04444220207031041,0.05273869190240665,0.25325876811084175,-0.09834979008536245,-0.037261990271152554,0.007736276124078937,0.01533697655898064,-0.029165862806330368,0.028202764570046685,-0.14102661238233058,-0.0417147028249463,0.024039617603008785,-0.049508256430004796,-0.019530135293923407,0.11656812813454132,0.0255774056848799,0.004911161640702891,-0.0023123529671311874,0.026562653129784803,0.05424570392309441,0.005689928196854387,0.06341337435248998,-0.03475655779785454,0.048388602710966205,-0.018267457808470597,-0.05267135631987846,0.07305405931802289,-0.13455568215910269,0.060982391588352385,-0.07644689555684397,-0.2752664980164563
-0.0022688090258060445,-0.07963325166338771,0.03931665656323455,0.11468331801076581,0.2273627816587835,-0.0892769394879015,0.22034911256128403,-0.031170783733517865,-0.08016080287665135,0.1646357587874532,0.037371285925475894,0.02619289267108295,-0.0644084580444079,-0.03516629888736761,-0.07129993954552144,-0.1447242741120376,0.10046175428430706,-0.05798277442419639,0.11920941439176032,0.14631513520228814,0.04043472248660149,0.0794967780233927,-0.06368953388397451,-0.037095348363518875,0.06237798991436572,-0.1419246652472014,0.11697368549363672,0.0964882301185472,-0.07462664552697483,-0.11861795746051432,-0.046939177601521304,0.12121243668751541,0.06354634022778698,0.01971457095882095,0.11783104651735388,-0.05200596072178748
-0.04057009836804098,0.06105998565689763,-0.08446927167756835,0.033204529671611985,0.12763817043821934,0.036179158620207034,-0.08741090710294713,-0.11826481882141718,0.008638302406231193,0.11155365086464919,0.07645965934838775,0.0710411555258788,0.09965160668660913,0.032144100963020256,-0.033496257223010154,0.09899699984713653,0.0827160886660857,-0.08881539141169445,0.20953993388836528,0.06936608450813417,0.10525311069677451,-0.043320941964071685,-0.029251793830589214,-0.07621398404982088,0.11374999695260367,0.07016038082669783,-0.13709584711399145,-0.024036043414775363,0.1314385693868185,-0.031073109400470863,0.02496923568024685,-0.08009498515676021,0.18094392009127025,-0.05180924741242805,0.008219447415686539,0.07087194406959177
